!!!!SEGMENT: pl-sa--135-a-iii-35--001_marescalchi-luigi--sinfonia-ex-d-allegro-assai.krn
!!!cenid: 17xx:578
!!!COM: Marescalchi, Luigi
!!!COM-rismid: pe30002079
!!!CDT: 1745-1812
!!!CNT: Italian
!!!OPR: Sinfonia ex D
!!!OTL: Allegro assai
!!!OMV: 001
!!!PDT:
!!!AGN: Secular
!!!SMS-siglum: PL-SA
!!!SMS-shelfmark: 135/A III 35
!!!SMS-shelfwork: 001-001 M
!!!SMS-variant:
!!!SMS-altvar:
!!!NIFC-rismid: 1001035052
!!!URL-scan: http://bc.bdsandomierz.pl/dlibra/publication/1492/edition/1460/content
!!!ONB-nifc: UWAGA: części Sinfonii: Allegro assai, Andante, Presto
!!!AIN: 2 cor 1 empty 2 oboe 1 viola 2 violn
!!!key:
**kern	**dynam	**kern	**dynam	**kern	**dynam	**kern	**dynam	**kern	**dynam	**kern	**dynam	**kern	**kern
*part8	*part8	*part7	*part7	*part6	*part6	*part5	*part5	*part4	*part4	*part3	*part3	*part2	*part1
*staff8	*	*staff7	*	*staff6	*	*staff5	*	*staff4	*	*staff3	*	*staff2	*staff1
*group4	*	*group3	*	*group3	*	*group3	*	*group2	*	*group2	*	*group1	*group1
*Iempty	*	*Iviola	*	*Ivioln	*	*Ivioln	*	*Icor	*	*Icor	*	*Ioboe	*Ioboe
*I"Baſso	*	*I"Viola obbligatto	*	*I"Violino Secundo.	*	*I"Violino Primo	*	*I"Corno Secondo	*	*I"Corno Primo	*	*I"Oboe Secondo	*I"Oboe Primo
*I'B	*	*I'vla	*	*I'vl 2	*	*I'vl 1	*	*I'cor 2	*	*I'cor 1	*	*I'ob 2	*I'ob 1
*clefF4	*	*clefC3	*	*clefG2	*	*clefG2	*	*clefG2	*	*clefG2	*	*clefG2	*clefG2
*ITrd0c0	*	*	*	*	*	*	*	*ITrd6c10	*	*ITrd6c10	*	*	*
*k[f#c#]	*	*k[f#c#]	*	*k[f#c#]	*	*k[f#c#]	*	*k[f#c#]	*	*k[f#c#]	*	*k[f#c#]	*k[f#c#]
*D:	*	*D:	*	*D:	*	*D:	*	*D:	*	*D:	*	*D:	*D:
*M4/4	*	*M4/4	*	*M4/4	*	*M4/4	*	*M4/4	*	*M4/4	*	*M4/4	*M4/4
*met(c)	*	*met(c)	*	*met(c)	*	*met(c)	*	*met(c)	*	*met(c)	*	*met(c)	*met(c)
*>[AA]	*	*>[AA]	*	*>[AA]	*	*>[AA]	*	*>[AA]	*	*>[AA]	*	*>[AA]	*>[AA]
=1	=1	=1	=1	=1	=1	=1	=1	=1	=1	=1	=1	=1	=1
*>A	*>A	*>A	*>A	*>A	*>A	*>A	*>A	*>A	*>A	*>A	*>A	*>A	*>A
*	*	*	*	*Xtuplet	*	*Xtuplet	*	*	*	*	*	*	*
!	!	!	!	!LO:TX:a:t=problem:brak oznaczenia triol	!	!LO:TX:a:t=problem:brak oznaczenia triol	!	!	!	!	!	!	!LO:TX:a:B:t=all(egr)o assai
!LO:TX:a:B:t=all(egr)o assai	!	!LO:TX:a:B:t=all(egr)o assai	!	!LO:TX:a:B:t=all(egr)o assai	!	!LO:TX:a:B:t=all(egr)o assai	!	!LO:TX:a:B:t=all(egr)o assai	!	!LO:TX:a:B:t=all(egr)o assai	!	!LO:TX:a:B:t=all(egr)o assai	!LO:TX:a:B:t=Allegro assai
4D\	.	4D/	.	4d/	.	4d/	.	4D/	.	4D/	.	4d/	4d/
4r	.	4r	.	8r	.	8r	.	4r	.	4r	.	4r	4r
.	.	.	.	16r	.	16r	.	.	.	.	.	.	.
.	.	.	.	(48A/LLL	.	(48A/LLL	.	.	.	.	.	.	.
.	.	.	.	48B/	.	48B/	.	.	.	.	.	.	.
.	.	.	.	48c#/JJJ)	.	48c#/JJJ)	.	.	.	.	.	.	.
4D\	.	4D/	.	4d`/	.	4d`/	.	4D/	.	4D/	.	4d/	4d/
4D\	.	4D/	.	4d`/	.	4d`/	.	4D/	.	4D/	.	4d/	4d/
=2	=2	=2	=2	=2	=2	=2	=2	=2	=2	=2	=2	=2	=2
4D\	.	4D/	.	4d`/	.	4d`/	.	4D/	.	4D/	.	4d/	4d/
4r	.	4r	.	8r	.	8r	.	4r	.	4r	.	4r	4r
.	.	.	.	16r	.	16r	.	.	.	.	.	.	.
.	.	.	.	(32d/LLL	.	(32d/LLL	.	.	.	.	.	.	.
.	.	.	.	32e/JJJ)	.	32e/JJJ)	.	.	.	.	.	.	.
4F#\	.	4F#/	.	4f#`/	.	4f#/	.	4F#/	.	4F#/	.	4f#/	4f#/
4F#\	.	4F#/	.	4f#`/	.	4f#/	.	4F#/	.	4F#/	.	4f#/	4f#/
=3	=3	=3	=3	=3	=3	=3	=3	=3	=3	=3	=3	=3	=3
4F#\	.	4F#/	.	4f#`/	.	4f#/	.	4F#/	.	4F#/	.	4f#/	4f#/
4r	.	4r	.	8r	.	8r	.	4r	.	4r	.	4r	4r
.	.	.	.	16r	.	16r	.	.	.	.	.	.	.
.	.	.	.	(32f#/LLL	.	(32f#/LLL	.	.	.	.	.	.	.
.	.	.	.	32g/JJJ)	.	32g/JJJ)	.	.	.	.	.	.	.
4A\	.	4A/	.	4a`/	.	4a`/	.	4A/	.	4A/	.	4a/	4a/
4A\	.	4A/	.	4a`/	.	4a`/	.	4A/	.	4A/	.	4a/	4a/
=4	=4	=4	=4	=4	=4	=4	=4	=4	=4	=4	=4	=4	=4
!	!	!LO:N:vis=4	!	!	!	!	!	!	!	!	!	!	!
4.A\	.	4.A/	.	4.a`/	.	4.a`/	.	4A/	.	4A/	.	4.a/	4.a/
.	.	.	.	.	.	.	.	4r	.	4r	.	.	.
16G\LL	.	16G/LL	.	16g/LL	.	16g/LL	.	.	.	.	.	16g/LL	16g/LL
16F#\JJ	.	16F#/JJ	.	16f#/JJ	.	16f#/JJ	.	.	.	.	.	16f#/JJ	16f#/JJ
8G\L	.	8G/L	.	8g/L	.	8g/L	.	2r	.	2r	.	8g/L	8g/L
8A\	.	8A/	.	8a/	.	8a/	.	.	.	.	.	8a/	8a/
8B\	.	8B/	.	8b/	.	8b/	.	.	.	.	.	8b/	8b/
8c#\J	.	8c#/J	.	8cc#/J	.	8cc#/J	.	.	.	.	.	8cc#/J	8cc#/J
=5	=5	=5	=5	=5	=5	=5	=5	=5	=5	=5	=5	=5	=5
4d\	.	4d\	.	4dd\	.	4dd\	.	4D/	.	4d\	.	4dd\	4dd\
4r	.	8r	.	8r	.	8r	.	4r	.	4r	.	4r	4r
.	.	16r	.	16r	.	16r	.	.	.	.	.	.	.
*	*	*Xtuplet	*	*	*	*	*	*	*	*	*	*	*
!	!	!LO:TX:a:t=problem:brak oznaczenia triol	!	!	!	!	!	!	!	!	!	!	!
.	.	(48A/LLL	.	(48A/LLL	.	(48a\LLL	.	.	.	.	.	.	.
.	.	48B/	.	48B/	.	48b\	.	.	.	.	.	.	.
.	.	48c#/JJJ)	.	48c#/JJJ)	.	48cc#\JJJ)	.	.	.	.	.	.	.
4D`\	.	4d`/	.	4d`/	.	4dd\	.	4D/	.	4d\	.	4dd\	4dd\
4D`\	.	4d`/	.	4d`/	.	4dd\	.	4D/	.	4d\	.	4dd\	4dd\
=6	=6	=6	=6	=6	=6	=6	=6	=6	=6	=6	=6	=6	=6
4D`\	.	4d/	.	4d`/	.	4dd\	.	4D/	.	4d\	.	4dd\	4dd\
4r	.	8r	.	8r	.	8r	.	4r	.	4r	.	4r	4r
.	.	16r	.	16r	.	16r	.	.	.	.	.	.	.
.	.	(32d\LLL	.	(32d/LLL	.	(32dd\LLL	.	.	.	.	.	.	.
.	.	32e\JJJ)	.	32e/JJJ)	.	32ee\JJJ)	.	.	.	.	.	.	.
4F#\	.	4f#\	.	4f#/	.	4ff#\	.	4F#/	.	4f#\	.	4ff#\	4ff#\
4F#\	.	4f#\	.	4f#/	.	4ff#\	.	4F#/	.	4f#\	.	4ff#\	4ff#\
=7	=7	=7	=7	=7	=7	=7	=7	=7	=7	=7	=7	=7	=7
4F#\	.	4f#\	.	4f#`/	.	4ff#\	.	4F#/	.	4f#\	.	4ff#\	4ff#\
4r	.	8r	.	8r	.	8r	.	4r	.	4r	.	4r	4r
.	.	16r	.	16r	.	16r	.	.	.	.	.	.	.
.	.	(32f#\LLL	.	(32f#/LLL	.	(32ff#\LLL	.	.	.	.	.	.	.
.	.	32g\JJJ)	.	32g/JJJ)	.	32gg\JJJ)	.	.	.	.	.	.	.
4A\	.	4a\	.	4a`/	.	4aa\	.	4A/	.	4a\	.	4aa\	4aa\
4A\	.	4a\	.	4a`/	.	4aa\	.	4A/	.	4a\	.	4aa\	4aa\
!	!	!	!	!LO:LB:g=original	!	!LO:LB:g=original	!	!	!	!	!	!	!
=8	=8	=8	=8	=8	=8	=8	=8	=8	=8	=8	=8	=8	=8
4.A\	.	4.a\	.	4.a`/	.	4.aa\	.	4A/	.	4a\	.	4.aa\	4.aa\
.	.	.	.	.	.	.	.	4r	.	4r	.	.	.
16G\LL	.	16g\LL	.	(16g/LL	.	16gg\LL	.	.	.	.	.	16gg\LL	16gg\LL
16F#\JJ	.	16f#\JJ	.	16f#/JJ)	.	16ff#\JJ	.	.	.	.	.	16ff#\JJ	16ff#\JJ
8G\L	.	8g\L	.	8g/L	.	8gg\L	.	2r	.	2r	.	8gg\L	8gg\L
8A\	.	8a\	.	8a/	.	8aa\	.	.	.	.	.	8aa\	8aa\
8B\	.	8b\	.	8b/	.	8bb\	.	.	.	.	.	8bb\	8bb\
8c#\J	.	8cc#\J	.	8cc#/J	.	8ccc#\J	.	.	.	.	.	8ccc#\J	8ccc#\J
!	!	!LO:LB:g=original	!	!	!	!	!	!	!	!	!	!	!
=9	=9	=9	=9	=9	=9	=9	=9	=9	=9	=9	=9	=9	=9
4d\	.	4dd\	.	4dd\	.	4ddd\	.	4d\	.	4d\	.	4ddd\	4ddd\
4r	.	4r	.	4r	.	4r	.	4r	.	4r	.	4r	4r
2r;	.	2r;	.	2r;	.	2r;	.	2r;	.	2r;	.	2r;	2r;
=10	=10	=10	=10	=10	=10	=10	=10	=10	=10	=10	=10	=10	=10
!	!	!	!LO:DY:t=p:	!	!LO:DY:p:	!	!LO:DY:t=p:	!	!	!	!	!	!
!	!LO:DY:a	!	!LO:DY:a	!	!LO:DY:a	!	!LO:DY:a	!	!	!	!	!	!
4D\	p	4D/	p	4d/	p	4d/	p	00r	.	00r	.	00r	00r
4r	.	4r	.	8r	.	8r	.	.	.	.	.	.	.
.	.	.	.	16r	.	16r	.	.	.	.	.	.	.
.	.	.	.	(48A/LLL	.	(48A/LLL	.	.	.	.	.	.	.
.	.	.	.	48B/	.	48B/	.	.	.	.	.	.	.
.	.	.	.	48c#/JJJ)	.	48c#/JJJ)	.	.	.	.	.	.	.
4D\	.	4D/	.	4d/	.	4d/	.	.	.	.	.	.	.
4D\	.	4D/	.	4d/	.	4d/	.	.	.	.	.	.	.
=11	=11	=11	=11	=11	=11	=11	=11	=11	=11	=11	=11	=11	=11
4D\	.	4D/	.	4d/	.	4d/	.	.	.	.	.	.	.
4r	.	4r	.	8r	.	8r	.	.	.	.	.	.	.
.	.	.	.	16r	.	16r	.	.	.	.	.	.	.
.	.	.	.	(32d/LLL	.	(32d/LLL	.	.	.	.	.	.	.
.	.	.	.	32e/JJJ)	.	32e/JJJ)	.	.	.	.	.	.	.
4F#\	.	4F#/ 4A	.	4f#/	.	4f#/	.	.	.	.	.	.	.
4F#\	.	4F#/	.	4f#/	.	4f#/	.	.	.	.	.	.	.
!LO:LB:g=original	!	!	!	!	!	!	!	!	!	!	!	!	!
=12	=12	=12	=12	=12	=12	=12	=12	=12	=12	=12	=12	=12	=12
4F#\	.	4F#/	.	4f#/	.	4f#/	.	.	.	.	.	.	.
4r	.	4r	.	8r	.	8r	.	.	.	.	.	.	.
.	.	.	.	16r	.	16r	.	.	.	.	.	.	.
.	.	.	.	(32f#/LLL	.	(32f#/LLL	.	.	.	.	.	.	.
.	.	.	.	32g/JJJ)	.	32g/JJJ)	.	.	.	.	.	.	.
4A\	.	4A/	.	4a/	.	4a/	.	.	.	.	.	.	.
4A\	.	4A/	.	4a/	.	4a/	.	.	.	.	.	.	.
=13	=13	=13	=13	=13	=13	=13	=13	=13	=13	=13	=13	=13	=13
4.A\	.	4.A/	.	4.a/	.	4.a/	.	.	.	.	.	.	.
16G\LL	.	16G/LL	.	16g/LL	.	16g/LL	.	.	.	.	.	.	.
16F#\JJ	.	16F#/JJ	.	16f#/JJ	.	16f#/JJ	.	.	.	.	.	.	.
8G\L	.	8G/L	.	8g/L	.	8g/L	.	.	.	.	.	.	.
8A\	.	8A/	.	8a/	.	8a/	.	.	.	.	.	.	.
8B\	.	8B/	.	8b/	.	8b/	.	.	.	.	.	.	.
8c#\J	.	8c#/J	.	8cc#/J	.	8cc#/J	.	.	.	.	.	.	.
=14	=14	=14	=14	=14	=14	=14	=14	=14	=14	=14	=14	=14	=14
4d\	.	4d\	.	4dd\	.	4dd\	.	00r	.	00r	.	00r	00r
4r	.	8r	.	8r	.	8r	.	.	.	.	.	.	.
.	.	16r	.	16r	.	16r	.	.	.	.	.	.	.
.	.	(48A/LLL	.	(48A/LLL	.	(48a\LLL	.	.	.	.	.	.	.
.	.	48B/	.	48B/	.	48b\	.	.	.	.	.	.	.
.	.	48c#/JJJ)	.	48c#/JJJ)	.	48cc#\JJJ)	.	.	.	.	.	.	.
4D\	.	4d\	.	4d/	.	4dd\	.	.	.	.	.	.	.
4D\	.	4d\	.	4d/	.	4dd\	.	.	.	.	.	.	.
!	!	!	!	!LO:LB:g=original	!	!	!	!	!	!	!	!	!
=15	=15	=15	=15	=15	=15	=15	=15	=15	=15	=15	=15	=15	=15
4D\	.	4d\	.	4d/	.	4dd\	.	.	.	.	.	.	.
4r	.	8r	.	8r	.	8r	.	.	.	.	.	.	.
.	.	16r	.	16r	.	16r	.	.	.	.	.	.	.
.	.	(32d\LLL	.	(32d/LLL	.	(32dd\LLL	.	.	.	.	.	.	.
.	.	32e\JJJ)	.	32e/JJJ)	.	32ee\JJJ)	.	.	.	.	.	.	.
4F#\	.	4f#\	.	4f#/	.	4ff#\	.	.	.	.	.	.	.
4F#\	.	4f#\	.	4f#/	.	4ff#\	.	.	.	.	.	.	.
!	!	!	!	!	!	!LO:LB:g=original	!	!	!	!	!	!	!
=16	=16	=16	=16	=16	=16	=16	=16	=16	=16	=16	=16	=16	=16
4F#\	.	4f#\	.	4f#/	.	4ff#\	.	.	.	.	.	.	.
4r	.	8r	.	8r	.	8r	.	.	.	.	.	.	.
.	.	16r	.	16r	.	16r	.	.	.	.	.	.	.
.	.	(32f#\LLL	.	(32f#/LLL	.	(32ff#\LLL	.	.	.	.	.	.	.
.	.	32g\JJJ)	.	32g/JJJ)	.	32gg\JJJ)	.	.	.	.	.	.	.
4A\	.	4a\	.	4a/	.	4aa\	.	.	.	.	.	.	.
4A\	.	4a\	.	4a/	.	4aa\	.	.	.	.	.	.	.
=17	=17	=17	=17	=17	=17	=17	=17	=17	=17	=17	=17	=17	=17
4.A\	.	4.a\	.	4.a/	.	4.aa\	.	.	.	.	.	.	.
16G\LL	.	16g\LL	.	16g/LL	.	16gg\LL	.	.	.	.	.	.	.
16F#\JJ	.	16f#\JJ	.	16f#/JJ	.	16ff#\JJ	.	.	.	.	.	.	.
8G\L	.	8g\L	.	8g/L	.	8gg\L	.	.	.	.	.	.	.
8A\	.	8a\	.	8a/	.	8aa\	.	.	.	.	.	.	.
8B\	.	8b\	.	8b/	.	8bb\	.	.	.	.	.	.	.
8c#\J	.	8cc#\J	.	8cc#/J	.	8ccc#\J	.	.	.	.	.	.	.
!	!	!LO:LB:g=original	!	!	!	!	!	!	!	!	!	!	!
=18	=18	=18	=18	=18	=18	=18	=18	=18	=18	=18	=18	=18	=18
*	*	*	*	*tremolo	*	*	*	*	*	*	*	*	*
*	*	*	*	*2\right	*	*	*	*	*	*	*	*	*
!	!LO:DY:a	!	!	!	!	!	!	!	!	!	!	!	!
8d\L	f	16dd\LL	.	16dd\LL	.	4ddd\	.	[>1D	.	[1d	.	[1dd	2r
.	.	16dd\	.	16dd\	.	.	.	.	.	.	.	.	.
!	!	!	!LO:DY:t=f:	!	!	!	!	!	!	!	!	!	!
!	!	!	!LO:DY:a	!	!	!	!	!	!	!	!	!	!
8D\	.	16f#\	f	16dd\	.	.	.	.	.	.	.	.	.
.	.	16f#\JJ	.	16dd\	.	.	.	.	.	.	.	.	.
8F#\	.	16d\LL	.	16dd\	.	4r	.	.	.	.	.	.	.
.	.	16d\	.	16dd\	.	.	.	.	.	.	.	.	.
8D\J	.	16f#\	.	16dd\	.	.	.	.	.	.	.	.	.
.	.	16f#\JJ	.	16dd\JJ	.	.	.	.	.	.	.	.	.
8F#\L	.	16d\LL	.	16dd\LL	.	4d/ 4dd 4aa	.	.	.	.	.	.	4aa\
.	.	16d\	.	16dd\	.	.	.	.	.	.	.	.	.
8D\	.	16f#\	.	16dd\	.	.	.	.	.	.	.	.	.
.	.	16f#\JJ	.	16dd\	.	.	.	.	.	.	.	.	.
8G\	.	16d\LL	.	16dd\	.	4d/ 4dd 4bb	.	.	.	.	.	.	4bb\
.	.	16d\	.	16dd\	.	.	.	.	.	.	.	.	.
8D\J	.	16g\	.	16dd\	.	.	.	.	.	.	.	.	.
.	.	16g\JJ	.	16dd\JJ	.	.	.	.	.	.	.	.	.
=19	=19	=19	=19	=19	=19	=19	=19	=19	=19	=19	=19	=19	=19
8F#\L	.	16d\LL	.	16dd\LL	.	4d/ 4dd 4aa	.	1D_>	.	1d_	.	1dd_	4aa\
.	.	16d\	.	16dd\	.	.	.	.	.	.	.	.	.
8D\	.	16f#\	.	16dd\	.	.	.	.	.	.	.	.	.
.	.	16f#\JJ	.	16dd\	.	.	.	.	.	.	.	.	.
8F#\	.	16d\LL	.	16dd\	.	4r	.	.	.	.	.	.	4r
.	.	16d\	.	16dd\	.	.	.	.	.	.	.	.	.
8D\J	.	16f#\	.	16dd\	.	.	.	.	.	.	.	.	.
.	.	16f#\JJ	.	16dd\JJ	.	.	.	.	.	.	.	.	.
8F#\L	.	16d\LL	.	16dd\LL	.	4d/ 4dd 4aa	.	.	.	.	.	.	4aa\
.	.	16d\	.	16dd\	.	.	.	.	.	.	.	.	.
8D\	.	16f#\	.	16dd\	.	.	.	.	.	.	.	.	.
.	.	16f#\JJ	.	16dd\	.	.	.	.	.	.	.	.	.
8G\	.	16d\LL	.	16dd\	.	4d/ 4dd 4bb	.	.	.	.	.	.	4bb\
.	.	16d\	.	16dd\	.	.	.	.	.	.	.	.	.
8D\J	.	16g\	.	16dd\	.	.	.	.	.	.	.	.	.
.	.	16g\JJ	.	16dd\JJ	.	.	.	.	.	.	.	.	.
!	!	!	!	!	!	!	!	!	!	!	!	!LO:LB:g=original	!LO:LB:g=original
=20	=20	=20	=20	=20	=20	=20	=20	=20	=20	=20	=20	=20	=20
!	!	!LO:TX:a:t=problem:repetycja tt.19	!	!	!	!	!	!	!	!	!	!	!
8F#\L	.	16d\LLyy	.	16dd\LL	.	4d/ 4dd 4aa	.	(1D]	.	1d]	.	1dd_	4aa\
.	.	16d\yy	.	16dd\	.	.	.	.	.	.	.	.	.
8D\	.	16f#\yy	.	16dd\	.	.	.	.	.	.	.	.	.
.	.	16f#\JJyy	.	16dd\	.	.	.	.	.	.	.	.	.
8F#\	.	16d\LLyy	.	16dd\	.	4r	.	.	.	.	.	.	4r
.	.	16d\yy	.	16dd\	.	.	.	.	.	.	.	.	.
8D\J	.	16f#\yy	.	16dd\	.	.	.	.	.	.	.	.	.
.	.	16f#\JJyy	.	16dd\JJ	.	.	.	.	.	.	.	.	.
8F#\L	.	16d\LLyy	.	16dd\LL	.	4d/ 4dd 4aa	.	.	.	.	.	.	4aa\
.	.	16d\yy	.	16dd\	.	.	.	.	.	.	.	.	.
8D\	.	16f#\yy	.	16dd\	.	.	.	.	.	.	.	.	.
.	.	16f#\JJyy	.	16dd\	.	.	.	.	.	.	.	.	.
8G\	.	16d\LLyy	.	16dd\	.	4d/ 4dd 4bb	.	.	.	.	.	.	4bb\
.	.	16d\yy	.	16dd\	.	.	.	.	.	.	.	.	.
8D\J	.	16g\yy	.	16dd\	.	.	.	.	.	.	.	.	.
.	.	16g\JJyy	.	16dd\JJ	.	.	.	.	.	.	.	.	.
=21	=21	=21	=21	=21	=21	=21	=21	=21	=21	=21	=21	=21	=21
*	*	*2\right	*	*	*	*	*	*	*	*	*	*	*
*	*	*tremolo	*	*	*	*	*	*	*	*2\right	*	*2\right	*
8F#\L	.	16f#\LL	.	16dd\LL	.	4d/ 4dd 4aa	.	2d\)	.	2g\	.	(2dd\]	4aa\
.	.	16f#\	.	16dd\	.	.	.	.	.	.	.	.	.
8F#\	.	16f#\	.	16dd\	.	.	.	.	.	.	.	.	.
.	.	16f#\	.	16dd\	.	.	.	.	.	.	.	.	.
8D\	.	16f#\	.	16dd\	.	8.ff#\L	.	.	.	.	.	.	4gg\
.	.	16f#\	.	16dd\	.	.	.	.	.	.	.	.	.
8D\J	.	16f#\	.	16dd\	.	.	.	.	.	.	.	.	.
.	.	16f#\JJ	.	16dd\JJ	.	16dd\Jk	.	.	.	.	.	.	.
*	*	*	*	*	*	*	*	*	*	*	*	*	*2\right
!LO:TX:a:t=problem:mixed beam	!	!	!	!	!	!	!	!	!	!	!	!	!
8A\L	.	16e\LL	.	16cc#\LL	.	4gg\	.	2A/	.	2e\	.	2cc#\)	2ee\
.	.	16e\	.	16cc#\	.	.	.	.	.	.	.	.	.
8A\	.	16e\	.	16cc#\	.	.	.	.	.	.	.	.	.
.	.	16e\	.	16cc#\	.	.	.	.	.	.	.	.	.
8AA/	.	16e\	.	16cc#\	.	8.ee\L	.	.	.	.	.	.	.
.	.	16e\	.	16cc#\	.	.	.	.	.	.	.	.	.
8AA/J	.	16e\	.	16cc#\	.	.	.	.	.	.	.	.	.
.	.	16e\JJ	.	16cc#\JJ	.	16cc#\Jk	.	.	.	.	.	.	.
!	!	!	!	!	!	!	!	!LO:LB:g=original	!	!LO:LB:g=original	!	!	!
*	*	*Xtremolo	*	*	*	*	*	*	*	*	*	*	*
!LO:LB:g=original	!	!	!	!	!	!	!	!	!	!	!	!	!
=22	=22	=22	=22	=22	=22	=22	=22	=22	=22	=22	=22	=22	=22
!	!LO:DY:a	!	!	!LO:TX:a:t=problem:mixed beam	!	!	!	!	!	!	!	!	!
8D\L	p	16d\LL	.	16dd/LL	.	4dd\	.	4F#/	.	4d\	.	4dd\	4dd\
.	.	16d\	.	16d/	.	.	.	.	.	.	.	.	.
8D\	.	16f#\	.	16d/	.	.	.	.	.	.	.	.	.
.	.	16f#\JJ	.	16d/JJ	.	.	.	.	.	.	.	.	.
8F#\	.	16d\LL	.	16d/LL	.	4r	.	4r	.	4r	.	4r	4r
.	.	16d\	.	16d/	.	.	.	.	.	.	.	.	.
8D\J	.	16f#\	.	16d/	.	.	.	.	.	.	.	.	.
.	.	16f#\JJ	.	16d/JJ	.	.	.	.	.	.	.	.	.
8F#\L	.	16d\LL	.	16d/LL	.	4d/ 4a	.	2r	.	2r	.	2r	2r
.	.	16d\	.	16d/	.	.	.	.	.	.	.	.	.
8D\	.	16f#\	.	16d/	.	.	.	.	.	.	.	.	.
.	.	16f#\JJ	.	16d/	.	.	.	.	.	.	.	.	.
8G\	.	16d\LL	.	16d/	.	4d/ 4b	.	.	.	.	.	.	.
.	.	16d\	.	16d/	.	.	.	.	.	.	.	.	.
8D\J	.	16g\	.	16d/	.	.	.	.	.	.	.	.	.
.	.	16g\JJ	.	16d/JJ	.	.	.	.	.	.	.	.	.
=23	=23	=23	=23	=23	=23	=23	=23	=23	=23	=23	=23	=23	=23
!	!	!LO:TX:a:t=problem:repetycja tt.22	!	!	!	!	!	!	!	!	!	!	!
8F#\L	.	16d\LLyy	.	16d/LL	.	4d/ 4a	.	1r	.	1r	.	1r	1r
.	.	16d\yy	.	16d/	.	.	.	.	.	.	.	.	.
8D\	.	16f#\yy	.	16d/	.	.	.	.	.	.	.	.	.
.	.	16f#\JJyy	.	16d/	.	.	.	.	.	.	.	.	.
8F#\	.	16d\LLyy	.	16d/	.	4r	.	.	.	.	.	.	.
.	.	16d\yy	.	16d/	.	.	.	.	.	.	.	.	.
8D\J	.	16f#\yy	.	16d/	.	.	.	.	.	.	.	.	.
.	.	16f#\JJyy	.	16d/JJ	.	.	.	.	.	.	.	.	.
8F#\L	.	16d\LLyy	.	16d/LL	.	4d/ 4a	.	.	.	.	.	.	.
.	.	16d\yy	.	16d/	.	.	.	.	.	.	.	.	.
8D\	.	16f#\yy	.	16d/	.	.	.	.	.	.	.	.	.
.	.	16f#\JJyy	.	16d/	.	.	.	.	.	.	.	.	.
8G\	.	16d\LLyy	.	16d/	.	4d/ 4b	.	.	.	.	.	.	.
.	.	16d\yy	.	16d/	.	.	.	.	.	.	.	.	.
8D\J	.	16g\yy	.	16d/	.	.	.	.	.	.	.	.	.
.	.	16g\JJyy	.	16d/JJ	.	.	.	.	.	.	.	.	.
!	!	!	!	!LO:LB:g=original	!	!	!	!	!	!	!	!	!
=24	=24	=24	=24	=24	=24	=24	=24	=24	=24	=24	=24	=24	=24
!LO:TX:a:t=problem:repetycja tt.23	!	!	!	!LO:TX:a:t=problem:mixed beam	!	!	!	!	!	!	!	!	!
8F#\Lyy	.	16d\LL	.	16d/LL	.	4d/ 4a	.	2r	.	2r	.	2r	2r
.	.	16d\	.	16dd\	.	.	.	.	.	.	.	.	.
8D\yy	.	16f#\	.	16dd\	.	.	.	.	.	.	.	.	.
.	.	16f#\JJ	.	16dd\JJ	.	.	.	.	.	.	.	.	.
8F#\yy	.	16d\LL	.	16dd\LL	.	4r	.	.	.	.	.	.	.
.	.	16d\	.	16dd\	.	.	.	.	.	.	.	.	.
8D\Jyy	.	16f#\	.	16dd\	.	.	.	.	.	.	.	.	.
.	.	16f#\JJ	.	16dd\JJ	.	.	.	.	.	.	.	.	.
8F#\Lyy	.	16d\LL	.	16dd\LL	.	4d/ 4dd 4aa	.	4D/	.	4d\	.	4dd\	4aa\
.	.	16d\	.	16dd\	.	.	.	.	.	.	.	.	.
8D\yy	.	16f#\	.	16dd\	.	.	.	.	.	.	.	.	.
.	.	16f#\JJ	.	16dd\	.	.	.	.	.	.	.	.	.
8G\yy	.	16d\LL	.	16dd\	.	4d/ 4dd 4bb	.	4D/	.	4d\	.	4dd\	4bb\
.	.	16d\	.	16dd\	.	.	.	.	.	.	.	.	.
8D\Jyy	.	16g\	.	16dd\	.	.	.	.	.	.	.	.	.
.	.	16g\JJ	.	16dd\JJ	.	.	.	.	.	.	.	.	.
=25	=25	=25	=25	=25	=25	=25	=25	=25	=25	=25	=25	=25	=25
*	*	*tremolo	*	*	*	*	*	*	*	*	*	*	*
8F#\L	.	16f#\LL	.	16dd\LL	.	4d/ 4dd 4aa	.	2d\	.	2f#\	.	2dd\	4aa\
.	.	16f#\	.	16dd\	.	.	.	.	.	.	.	.	.
8F#\	.	16f#\	.	16dd\	.	.	.	.	.	.	.	.	.
.	.	16f#\	.	16dd\	.	.	.	.	.	.	.	.	.
8D\	.	16f#\	.	16dd\	.	8.ff#\L	.	.	.	.	.	.	4gg\
.	.	16f#\	.	16dd\	.	.	.	.	.	.	.	.	.
8D\J	.	16f#\	.	16dd\	.	.	.	.	.	.	.	.	.
.	.	16f#\JJ	.	16dd\JJ	.	16ee\Jk	.	.	.	.	.	.	.
8A\L	.	16e\LL	.	16cc#\LL	.	4gg\	.	2A/	.	2e\	.	2cc#\	2ee\
.	.	16e\	.	16cc#\	.	.	.	.	.	.	.	.	.
!LO:TX:a:t=problem: mixed beam	!	!	!	!	!	!	!	!	!	!	!	!	!
8A\	.	16e\	.	16cc#\	.	.	.	.	.	.	.	.	.
.	.	16e\	.	16cc#\	.	.	.	.	.	.	.	.	.
8AA/	.	16e\	.	16cc#\	.	8.ee\L	.	.	.	.	.	.	.
.	.	16e\	.	16cc#\	.	.	.	.	.	.	.	.	.
8AA/J	.	16e\	.	16cc#\	.	.	.	.	.	.	.	.	.
.	.	16e\JJ	.	16cc#\JJ	.	16cc#\Jk	.	.	.	.	.	.	.
!	!	!LO:LB:g=original	!	!	!	!LO:LB:g=original	!	!	!	!	!	!	!
=26	=26	=26	=26	=26	=26	=26	=26	=26	=26	=26	=26	=26	=26
*tremolo	*	*	*	*	*	*	*	*	*	*	*	*	*
*2\right	*	*	*	*	*	*	*	*	*	*	*	*	*
!	!	!	!	!LO:TX:a:t=problem: mixed beam	!	!LO:TX:a:t=problem: mixed beam	!	!	!	!	!	!	!
8D\L	.	8d\LL	.	8dd\L	.	8dd\L	.	[1d	.	1d	.	[1dd	[1ff#
.	.	.	.	.	.	.	.	.	.	.	.	.	.
8D\	.	8d\	.	8d/	.	8d/	.	.	.	.	.	.	.
.	.	.	.	.	.	.	.	.	.	.	.	.	.
8D\	.	8d\	.	8d/	.	8d/	.	.	.	.	.	.	.
.	.	.	.	.	.	.	.	.	.	.	.	.	.
8D\J	.	8d\JJ	.	8d/J	.	8d/J	.	.	.	.	.	.	.
.	.	.	.	.	.	.	.	.	.	.	.	.	.
8D\L	.	8d\LL	.	8d/L	.	8d/L	.	.	.	.	.	.	.
.	.	.	.	.	.	.	.	.	.	.	.	.	.
8D\	.	8d\	.	16e/L	.	16e/L	.	.	.	.	.	.	.
.	.	.	.	16f#/JJ	.	16f#/JJ	.	.	.	.	.	.	.
8D\	.	8d\	.	16g\LL	.	16g\LL	.	.	.	.	.	.	.
.	.	.	.	16a\	.	16a\	.	.	.	.	.	.	.
8D\J	.	8d\JJ	.	16b\	.	16b\	.	.	.	.	.	.	.
.	.	.	.	16cc#\JJ	.	16cc#\JJ	.	.	.	.	.	.	.
=27	=27	=27	=27	=27	=27	=27	=27	=27	=27	=27	=27	=27	=27
!LO:TX:a:t=problem:repetycja tt.26	!	!	!	!	!	!	!	!	!	!	!	!	!
8D\Lyy	.	8d\LL	.	8dd\L	.	8dd\L	.	1d]	.	1d	.	(1dd]	1ff#]
.	.	.	.	.	.	.	.	.	.	.	.	.	.
8D\yy	.	8d\	.	16ee\L	.	16ee\L	.	.	.	.	.	.	.
.	.	.	.	16ff#\JJ	.	16ff#\JJ	.	.	.	.	.	.	.
8D\yy	.	8d\	.	16gg\LL	.	16gg\LL	.	.	.	.	.	.	.
.	.	.	.	16aa\	.	16aa\	.	.	.	.	.	.	.
8D\Jyy	.	8d\JJ	.	16bb\	.	16bb\	.	.	.	.	.	.	.
.	.	.	.	16ccc#\JJ	.	16ccc#\JJ	.	.	.	.	.	.	.
8D\Lyy	.	8d\LL	.	8ddd\L	.	8ddd\L	.	.	.	.	.	.	.
.	.	.	.	.	.	.	.	.	.	.	.	.	.
8D\yy	.	8d\	.	8aa\	.	8aa\	.	.	.	.	.	.	.
.	.	.	.	.	.	.	.	.	.	.	.	.	.
8D\yy	.	8d\	.	8ff#\	.	8ff#\	.	.	.	.	.	.	.
.	.	.	.	.	.	.	.	.	.	.	.	.	.
8D\Jyy	.	8d\JJ	.	8dd\J	.	8dd\J	.	.	.	.	.	.	.
.	.	.	.	.	.	.	.	.	.	.	.	.	.
=28	=28	=28	=28	=28	=28	=28	=28	=28	=28	=28	=28	=28	=28
8E\L	.	8e\LL	.	(16gg#X\LL	.	(16gg#X\LL	.	[1e	.	1e	.	[1ee)	1gg#X
.	.	.	.	16aa\	.	16aa\	.	.	.	.	.	.	.
8E\	.	8e\	.	16bb\	.	16bb\	.	.	.	.	.	.	.
.	.	.	.	16aa\JJ)	.	16aa\JJ)	.	.	.	.	.	.	.
8E\	.	8e\	.	8gg#\L	.	8gg#\L	.	.	.	.	.	.	.
.	.	.	.	.	.	.	.	.	.	.	.	.	.
8E\J	.	8e\JJ	.	8ee\J	.	8ee\J	.	.	.	.	.	.	.
.	.	.	.	.	.	.	.	.	.	.	.	.	.
8E\L	.	8f#\LL	.	8gg#\L	.	8gg#\L	.	.	.	.	.	.	.
.	.	.	.	.	.	.	.	.	.	.	.	.	.
8E\	.	8f#\	.	8ee\	.	8ee\	.	.	.	.	.	.	.
.	.	.	.	.	.	.	.	.	.	.	.	.	.
8E\	.	8f#\	.	8gg#\	.	8gg#\	.	.	.	.	.	.	.
.	.	.	.	.	.	.	.	.	.	.	.	.	.
8E\J	.	8f#\JJ	.	8bb\J	.	8bb\J	.	.	.	.	.	.	.
.	.	.	.	.	.	.	.	.	.	.	.	.	.
=29	=29	=29	=29	=29	=29	=29	=29	=29	=29	=29	=29	=29	=29
!	!	!	!	!	!	!	!LO:DY:a	!	!	!	!	!	!
!	!	!	!	!	!	!	!LO:DY:t=f:	!	!	!	!	!	!
8C#/L	.	8c#\LL	.	(16aa\LL	.	16aa\LL	f	1e]	.	1e	.	1ee_	1aa
.	.	.	.	16bb\	.	16bb\	.	.	.	.	.	.	.
8C#/	.	8c#\	.	16ccc#\	.	16ccc#\	.	.	.	.	.	.	.
.	.	.	.	16bb\JJ)	.	16bb\JJ	.	.	.	.	.	.	.
8C#/	.	8c#\	.	8aa\L	.	8aa\L	.	.	.	.	.	.	.
.	.	.	.	.	.	.	.	.	.	.	.	.	.
8C#/J	.	8c#\JJ	.	8ee\J	.	8ee\J	.	.	.	.	.	.	.
.	.	.	.	.	.	.	.	.	.	.	.	.	.
8C#/L	.	8c#\LL	.	8aa\L	.	8aa\L	.	.	.	.	.	.	.
.	.	.	.	.	.	.	.	.	.	.	.	.	.
8C#/	.	8c#\	.	8ee\	.	8ee\	.	.	.	.	.	.	.
.	.	.	.	.	.	.	.	.	.	.	.	.	.
8C#/	.	8c#\	.	8aa\	.	8aa\	.	.	.	.	.	.	.
.	.	.	.	.	.	.	.	.	.	.	.	.	.
8C#/J	.	8c#\JJ	.	8ccc#\J	.	8ccc#\J	.	.	.	.	.	.	.
.	.	.	.	.	.	.	.	.	.	.	.	.	.
=30	=30	=30	=30	=30	=30	=30	=30	=30	=30	=30	=30	=30	=30
!	!	!	!LO:DY:a	!	!	!	!	!	!	!	!	!	!
8G#X\L	.	8G#X/LL	p	16bb\LL	.	16bb\LL	.	(>1e	.	1e	.	(1ee]	1bb
.	.	.	.	16ccc#\	.	16ccc#\	.	.	.	.	.	.	.
8G#\	.	8G#/	.	16ddd\	.	16ddd\	.	.	.	.	.	.	.
.	.	.	.	16ccc#\JJ	.	16ccc#\JJ	.	.	.	.	.	.	.
8G#\	.	8G#/	.	8bb\L	.	8bb\L	.	.	.	.	.	.	.
.	.	.	.	.	.	.	.	.	.	.	.	.	.
8G#\J	.	8G#/JJ	.	8ee\J	.	8ee\J	.	.	.	.	.	.	.
.	.	.	.	.	.	.	.	.	.	.	.	.	.
8G#\L	.	8G#/LL	.	8bb\L	.	8bb\L	.	.	.	.	.	.	.
.	.	.	.	.	.	.	.	.	.	.	.	.	.
8G#\	.	8G#/	.	8ee\	.	8ee\	.	.	.	.	.	.	.
.	.	.	.	.	.	.	.	.	.	.	.	.	.
8G#\	.	8G#/	.	8bb\	.	8bb\	.	.	.	.	.	.	.
.	.	.	.	.	.	.	.	.	.	.	.	.	.
8G#\J	.	8G#/JJ	.	8ddd\J	.	8ddd\J	.	.	.	.	.	.	.
.	.	.	.	.	.	.	.	.	.	.	.	.	.
!	!	!	!	!LO:LB:g=original	!	!	!	!	!	!	!	!	!
*Xtremolo	*	*Xtremolo	*	*Xtremolo	*	*	*	*	*	*	*	*	*
=31	=31	=31	=31	=31	=31	=31	=31	=31	=31	=31	=31	=31	=31
4A\	.	4A/	.	(16ccc#\LL	.	(16ccc#\LL	.	[>1A)	.	[1a	.	1aa)	[<1ccc#
.	.	.	.	16bb\J	.	16bb\J	.	.	.	.	.	.	.
.	.	.	.	8aa\J)	.	8aa\J)	.	.	.	.	.	.	.
8r	.	8r	.	8r	.	8r	.	.	.	.	.	.	.
16r	.	16r	.	8aa\	.	8aa\	.	.	.	.	.	.	.
*Xtuplet	*	*	*	*	*	*	*	*	*	*	*	*	*
!LO:TX:a:t=problem:brak oznaczenia triol	!	!	!	!	!	!	!	!	!	!	!	!	!
(48E\LLL	.	(48e\LLL	.	.	.	.	.	.	.	.	.	.	.
48F#\	.	48f#\	.	.	.	.	.	.	.	.	.	.	.
48G#y\JJJ)	.	48g#X\JJJ)	.	.	.	.	.	.	.	.	.	.	.
8.A\L	.	8.a\L	.	8aa\L	.	8aa\L	.	.	.	.	.	.	.
.	.	.	.	8aa\	.	8aa\	.	.	.	.	.	.	.
16A\K	.	16a\K	.	.	.	.	.	.	.	.	.	.	.
8.G#\	.	8.g#\	.	8aa\	.	8aa\	.	.	.	.	.	.	.
.	.	.	.	8aa\J	.	8aa\J	.	.	.	.	.	.	.
16G#\Jk	.	16g#\Jk	.	.	.	.	.	.	.	.	.	.	.
=32	=32	=32	=32	=32	=32	=32	=32	=32	=32	=32	=32	=32	=32
!	!	!	!	!LO:TX:a:t=problem:repetycja tt.31	!	!	!	!	!	!	!	!	!
4F#\	.	4f#\	.	(16ccc#\LLyy	.	(16ccc#\LL	.	1A]	.	1a_	.	1aa	1ccc#]
.	.	.	.	16bb\Jyy	.	16bb\J	.	.	.	.	.	.	.
.	.	.	.	8aa\J)yy	.	8aa\J)	.	.	.	.	.	.	.
8r	.	8r	.	8ryy	.	8r	.	.	.	.	.	.	.
16r	.	16r	.	8aa\yy	.	8aa\	.	.	.	.	.	.	.
(48C#\LLL	.	(48c#\LLL	.	.	.	.	.	.	.	.	.	.	.
48D\	.	48d\	.	.	.	.	.	.	.	.	.	.	.
48E\JJJ)	.	48e\JJJ)	.	.	.	.	.	.	.	.	.	.	.
!	!	!	!	!	!	!LO:LB:g=original	!	!	!	!	!	!	!
8.F#\L	.	8.f#\L	.	8aa\Lyy	.	8aa\L	.	.	.	.	.	.	.
.	.	.	.	8aa\yy	.	8aa\	.	.	.	.	.	.	.
16F#\K	.	16f#\K	.	.	.	.	.	.	.	.	.	.	.
8.E\	.	8.e\	.	8aa\yy	.	8aa\	.	.	.	.	.	.	.
.	.	.	.	8aa\Jyy	.	8aa\J 8ccc#	.	.	.	.	.	.	.
16E\Jk	.	16e\Jk	.	.	.	.	.	.	.	.	.	.	.
!LO:LB:g=original	!	!	!	!	!	!	!	!	!	!	!	!	!
=33	=33	=33	=33	=33	=33	=33	=33	=33	=33	=33	=33	=33	=33
*	*	*	*	*tremolo	*	*tremolo	*	*	*	*	*	*	*
*	*	*	*	*	*	*2\right	*	*	*	*	*	*	*
8.D\L	.	8.d\L	.	16aa\LL	.	16bb\LL	.	1A	.	(1a]	.	1aa	[<1bb
.	.	.	.	16aa\	.	16bb\	.	.	.	.	.	.	.
.	.	.	.	16aa\	.	16bb\	.	.	.	.	.	.	.
16D\K	.	16d\K	.	16aa\	.	16bb\	.	.	.	.	.	.	.
8.D\	.	8.d\	.	16aa\	.	16bb\	.	.	.	.	.	.	.
.	.	.	.	16aa\	.	16bb\	.	.	.	.	.	.	.
.	.	.	.	16aa\	.	16bb\	.	.	.	.	.	.	.
16D\Jk	.	16d\Jk	.	16aa\JJ	.	16bb\JJ	.	.	.	.	.	.	.
!	!	!	!LO:DY:a	!	!	!	!	!	!	!	!	!	!
8.D#X\L	.	8.d#X\L	f	16aa\LL	.	16bb\LL	.	.	.	.	.	.	.
.	.	.	.	16aa\	.	16bb\	.	.	.	.	.	.	.
.	.	.	.	16aa\	.	16bb\	.	.	.	.	.	.	.
16D#\K	.	16d#\K	.	16aa\	.	16bb\	.	.	.	.	.	.	.
8.D#\	.	8.d#\	.	16aa\	.	16bb\	.	.	.	.	.	.	.
.	.	.	.	16aa\	.	16bb\	.	.	.	.	.	.	.
.	.	.	.	16aa\	.	16bb\	.	.	.	.	.	.	.
16D#\Jk	.	16d#\Jk	.	16aa\JJ	.	16bb\JJ	.	.	.	.	.	.	.
*	*	*	*	*Xtremolo	*	*Xtremolo	*	*	*	*	*	*	*
=34	=34	=34	=34	=34	=34	=34	=34	=34	=34	=34	=34	=34	=34
4E\	.	4e\	.	4gg#X\	.	4bb\	.	4e\	.	4e\)	.	4gg#X\	4bb\]
16e\LL	.	(16e\LL	.	(16ee\LL	.	(16ee\LL	.	4r	.	4r	.	(16ee\LL	(16ee\LL
16d#X\	.	16d#X\	.	16dd#X\	.	16dd#X\	.	.	.	.	.	16dd#X\	16dd#X\
16e\	.	16e\	.	16ee\	.	16ee\	.	.	.	.	.	16ee\	16ee\
16d#\JJ	.	16d#\JJ)	.	16dd#\JJ)	.	16dd#\JJ)	.	.	.	.	.	16ddn\JJ)	16dd#\JJ)
!	!	!LO:LB:g=original	!	!	!	!	!	!	!	!	!	!	!
4e\	.	4e\	.	4ee\	.	4ee\	.	4e\	.	4e\	.	4ee\	4ee\
(16E\LL	.	(16E/LL	.	(16e/LL	.	(16e/LL	.	4r	.	4r	.	(16e/LL	(16e/LL
16D#X\	.	16D#X/	.	16d#X/	.	16d#X/	.	.	.	.	.	16d#X/	16d#X/
16E\	.	16E/	.	16e/	.	16e/	.	.	.	.	.	16e/	16e/
16D#\JJ)	.	16D#/JJ)	.	16d#/JJ)	.	16d#/JJ)	.	.	.	.	.	16d#/JJ)	16d#/JJ)
!	!	!	!	!	!	!	!	!	!	!	!	!	!LO:LB:g=original
=35	=35	=35	=35	=35	=35	=35	=35	=35	=35	=35	=35	=35	=35
!	!	!LO:TX:a:t=problem: mixed beam	!LO:DY:a	!	!	!	!	!	!	!	!	!	!
4E\	.	(8E/L	p	8e/L	.	4e/	.	4e\	.	4e\	.	4e/	4e/
.	.	8e\	.	(8e/	.	.	.	.	.	.	.	.	.
4r	.	8d#X\	.	8d#X/	.	4r	.	4r	.	4r	.	4r	4r
.	.	8e\J	.	8e/J	.	.	.	.	.	.	.	.	.
2r	.	8d#\L	.	8d#/L	.	2r	.	2r	.	2r	.	2r	2r
.	.	8e\	.	8e/	.	.	.	.	.	.	.	.	.
.	.	8d#\	.	8d#/	.	.	.	.	.	.	.	.	.
.	.	8e\J)	.	8e/J)	.	.	.	.	.	.	.	.	.
!	!	!	!	!	!	!	!	!	!	!	!	!LO:LB:g=original	!
=36	=36	=36	=36	=36	=36	=36	=36	=36	=36	=36	=36	=36	=36
00r	.	(8dn\L	.	8dn/L	.	2r	.	00r	.	00r	.	00r	00r
.	.	8e\	.	(8e/	.	.	.	.	.	.	.	.	.
.	.	8d\	.	8d/	.	.	.	.	.	.	.	.	.
.	.	8e\J	.	8e/J	.	.	.	.	.	.	.	.	.
.	.	8d\L	.	8d/L	.	4.gg#Xt\	.	.	.	.	.	.	.
.	.	8e\	.	8e/	.	.	.	.	.	.	.	.	.
.	.	8d\	.	8d/	.	.	.	.	.	.	.	.	.
.	.	8e\J)	.	8e/J)	.	16ff#\LL	.	.	.	.	.	.	.
.	.	.	.	.	.	16gg#\JJ	.	.	.	.	.	.	.
=37	=37	=37	=37	=37	=37	=37	=37	=37	=37	=37	=37	=37	=37
.	.	(8c#\L	.	(8c#/L	.	(4.aa\	.	.	.	.	.	.	.
.	.	8e\	.	8e/	.	.	.	.	.	.	.	.	.
.	.	8c#\	.	8c#/	.	.	.	.	.	.	.	.	.
.	.	8e\J)	.	8e/J	.	16gg\LL	.	.	.	.	.	.	.
.	.	.	.	.	.	16ff#\JJ)	.	.	.	.	.	.	.
.	.	4c#\	.	8c#/L	.	4ee\	.	.	.	.	.	.	.
.	.	.	.	8e/	.	.	.	.	.	.	.	.	.
.	.	8A/	.	8c#/	.	8cc#\	.	.	.	.	.	.	.
.	.	8r	.	8e/J)	.	8r	.	.	.	.	.	.	.
=38	=38	=38	=38	=38	=38	=38	=38	=38	=38	=38	=38	=38	=38
.	.	8G#X`/	.	8G#X/L	.	8b`\	.	.	.	.	.	.	.
.	.	8r	.	8e/	.	8r	.	.	.	.	.	.	.
.	.	8A`/	.	8A/	.	8cc#`\	.	.	.	.	.	.	.
.	.	8r	.	8e/J	.	8r	.	.	.	.	.	.	.
.	.	8B`/	.	8B/L	.	8dd\	.	.	.	.	.	.	.
.	.	8r	.	8e/	.	8r	.	.	.	.	.	.	.
.	.	8G#`/	.	8G#/	.	8b\	.	.	.	.	.	.	.
.	.	8r	.	8e/J	.	8r	.	.	.	.	.	.	.
!	!	!	!	!LO:LB:g=original	!	!	!	!	!	!	!	!	!
=39	=39	=39	=39	=39	=39	=39	=39	=39	=39	=39	=39	=39	=39
.	.	(8A\L	.	8A/L	.	(32cc#\LLL	.	.	.	.	.	.	.
.	.	.	.	.	.	32dd\JJ	.	.	.	.	.	.	.
.	.	.	.	.	.	8ee\J)	.	.	.	.	.	.	.
.	.	8e\	.	8e/	.	.	.	.	.	.	.	.	.
.	.	.	.	.	.	4r	.	.	.	.	.	.	.
.	.	8d#X\	.	8d#X/	.	.	.	.	.	.	.	.	.
.	.	8e\J	.	8e/J	.	.	.	.	.	.	.	.	.
!	!	!	!	!	!	!LO:TX:a:t=problem:brak pauzy 16r	!	!	!	!	!	!	!
.	.	.	.	.	.	16ryy	.	.	.	.	.	.	.
.	.	8d#\L	.	8d#/L	.	2r	.	.	.	.	.	.	.
.	.	8e\	.	8e/	.	.	.	.	.	.	.	.	.
.	.	8d#\	.	8d#/	.	.	.	.	.	.	.	.	.
.	.	8e\J)	.	8e/J	.	.	.	.	.	.	.	.	.
=40	=40	=40	=40	=40	=40	=40	=40	=40	=40	=40	=40	=40	=40
00r	.	(8dn\L	.	8dn/L	.	2r	.	00r	.	00r	.	00r	00r
.	.	8e\	.	8e/	.	.	.	.	.	.	.	.	.
.	.	8d\	.	8d/	.	.	.	.	.	.	.	.	.
.	.	8e\J	.	8e/J	.	.	.	.	.	.	.	.	.
.	.	8d\L	.	8d/L	.	4.ggM\	.	.	.	.	.	.	.
.	.	8e\	.	8e/	.	.	.	.	.	.	.	.	.
.	.	8d\	.	8d/	.	.	.	.	.	.	.	.	.
.	.	8e\J)	.	8e/J	.	16ff#\LL	.	.	.	.	.	.	.
.	.	.	.	.	.	16gg\JJ	.	.	.	.	.	.	.
!	!	!	!	!	!	!LO:LB:g=original	!	!	!	!	!	!	!
=41	=41	=41	=41	=41	=41	=41	=41	=41	=41	=41	=41	=41	=41
.	.	(8c#\L	.	8c#/L	.	(4.aa\	.	.	.	.	.	.	.
.	.	8e\	.	8e/	.	.	.	.	.	.	.	.	.
.	.	8c#\	.	8c#/	.	.	.	.	.	.	.	.	.
.	.	8e\J)	.	8e/J	.	16gg\LL	.	.	.	.	.	.	.
.	.	.	.	.	.	16ff#\JJ)	.	.	.	.	.	.	.
.	.	4c#\	.	8c#/L	.	4ee\	.	.	.	.	.	.	.
.	.	.	.	8e/	.	.	.	.	.	.	.	.	.
.	.	8A/	.	8A/	.	8cc#`\	.	.	.	.	.	.	.
.	.	8r	.	8e/J	.	8r	.	.	.	.	.	.	.
!	!	!LO:LB:g=original	!	!	!	!	!	!	!	!	!	!	!
=42	=42	=42	=42	=42	=42	=42	=42	=42	=42	=42	=42	=42	=42
.	.	8G#X`/	.	8G#X/L	.	8b`\	.	.	.	.	.	.	.
.	.	8r	.	8e/	.	8r	.	.	.	.	.	.	.
.	.	8A`/	.	8A/	.	8cc#`\	.	.	.	.	.	.	.
.	.	8r	.	8e/J	.	8r	.	.	.	.	.	.	.
.	.	8B`/	.	8B/L	.	8dd`\	.	.	.	.	.	.	.
.	.	8r	.	8e/	.	8r	.	.	.	.	.	.	.
.	.	8G#`/	.	8G#/	.	8b`\	.	.	.	.	.	.	.
.	.	8r	.	8e/J	.	8r	.	.	.	.	.	.	.
=43	=43	=43	=43	=43	=43	=43	=43	=43	=43	=43	=43	=43	=43
.	.	8A`/	.	8A/L	.	8cc#`\	.	.	.	.	.	.	.
.	.	8r	.	8e/	.	8r	.	.	.	.	.	.	.
.	.	8c#`/	.	8c#/	.	8ee`\	.	.	.	.	.	.	.
.	.	8r	.	8e/J	.	8r	.	.	.	.	.	.	.
.	.	8B`/	.	8B/L	.	8dd`\	.	.	.	.	.	.	.
.	.	8r	.	8e/	.	8r	.	.	.	.	.	.	.
.	.	8A`/	.	8A/	.	8cc#`\	.	.	.	.	.	.	.
.	.	8r	.	8e/J	.	8r	.	.	.	.	.	.	.
=44	=44	=44	=44	=44	=44	=44	=44	=44	=44	=44	=44	=44	=44
1r	.	8G#X`/	.	8G#X/L	.	8b`\	.	1r	.	1r	.	1r	1r
.	.	8r	.	8e/	.	8r	.	.	.	.	.	.	.
.	.	8c#`/	.	8A/	.	8ee`\	.	.	.	.	.	.	.
.	.	8r	.	8e/J	.	8r	.	.	.	.	.	.	.
.	.	8B`/	.	8B/L	.	8dd`\	.	.	.	.	.	.	.
.	.	8r	.	8e/	.	8r	.	.	.	.	.	.	.
.	.	8A`/	.	8A/	.	8cc#`\	.	.	.	.	.	.	.
.	.	8r	.	8e/J	.	8r	.	.	.	.	.	.	.
=45	=45	=45	=45	=45	=45	=45	=45	=45	=45	=45	=45	=45	=45
!	!	!	!	!	!	!	!	!	!LO:DY:t=p:	!	!	!	!
!	!	!LO:TX:a:t=problem: mixed beam	!	!	!	!	!	!	!LO:DY:a	!	!	!	!
*tremolo	*	*	*	*	*	*	*	*	*	*	*	*	*
8e\L	.	8G#X/L	.	4G#X/	.	4b`\	.	1e	p	[1e	.	1ee	[1ee
8e\	.	8e\	.	.	.	.	.	.	.	.	.	.	.
8e\	.	8e\	.	8r	.	8r	.	.	.	.	.	.	.
8e\J	.	8e\J	.	8g#X\	.	8g#X/	.	.	.	.	.	.	.
*	*	*tremolo	*	*	*	*	*	*	*	*	*	*	*
8e\L	.	8e\L	.	(32b\LLL	.	(32b/LLL	.	.	.	.	.	.	.
.	.	.	.	32a\JJ)	.	32a/JJ	.	.	.	.	.	.	.
!	!	!	!	!LO:N:vis=8	!	!	!	!	!	!	!	!	!
.	.	.	.	8.g#\J	.	8.g#/J)	.	.	.	.	.	.	.
8e\	.	8e\	.	.	.	.	.	.	.	.	.	.	.
8e\	.	8e\	.	8r	.	8r	.	.	.	.	.	.	.
8e\J	.	8e\J	.	8b\	.	8b\	.	.	.	.	.	.	.
!	!	!	!	!LO:LB:g=original	!	!	!	!	!	!	!	!	!
=46	=46	=46	=46	=46	=46	=46	=46	=46	=46	=46	=46	=46	=46
8e\L	.	8e\L	.	(32cc#\LLL	.	(32cc#\LLL	.	[1e	.	1e_	.	1ee	1ee_
.	.	.	.	32b\JJ	.	32b\JJ	.	.	.	.	.	.	.
.	.	.	.	8a\J)	.	8a\J)	.	.	.	.	.	.	.
8e\	.	8e\	.	.	.	.	.	.	.	.	.	.	.
.	.	.	.	8r	.	8r	.	.	.	.	.	.	.
8e\	.	8e\	.	.	.	.	.	.	.	.	.	.	.
.	.	.	.	8a\	.	8a\	.	.	.	.	.	.	.
8e\J	.	8e\J	.	.	.	.	.	.	.	.	.	.	.
.	.	.	.	(32cc#\LLL	.	(32cc#\LLL	.	.	.	.	.	.	.
.	.	.	.	32b\JJ	.	32b\JJ	.	.	.	.	.	.	.
8e\L	.	8e\L	.	8a\J)	.	8a\J)	.	.	.	.	.	.	.
8e\	.	8e\	.	4r	.	4r	.	.	.	.	.	.	.
8e\	.	8e\	.	.	.	.	.	.	.	.	.	.	.
!	!	!	!	!LO:TX:a:t=SIC!:s:cc#	!	!	!	!	!	!	!	!	!
8e\J	.	8e\J	.	8b\	.	8cc#\	.	.	.	.	.	.	.
!	!	!	!	!	!	!LO:LB:g=original	!	!	!	!	!	!	!
=47	=47	=47	=47	=47	=47	=47	=47	=47	=47	=47	=47	=47	=47
!LO:TX:a:t=problem:repetycja tt.45-46	!	!	!	!	!	!	!	!	!	!	!	!	!
8e\Lyy	.	8e\L	.	(32b\LLL	.	(32dd\LLL	.	1e_	.	1e_	.	1ee	1ee_
.	.	.	.	32a\JJ	.	32cc#\JJ	.	.	.	.	.	.	.
.	.	.	.	8g#X\J)	.	8b\J)	.	.	.	.	.	.	.
8e\yy	.	8e\	.	.	.	.	.	.	.	.	.	.	.
.	.	.	.	8r	.	8r	.	.	.	.	.	.	.
8e\yy	.	8e\	.	.	.	.	.	.	.	.	.	.	.
.	.	.	.	8g#\	.	8b\	.	.	.	.	.	.	.
8e\Jyy	.	8e\J	.	.	.	.	.	.	.	.	.	.	.
.	.	.	.	(32b\LLL	.	(32dd\LLL	.	.	.	.	.	.	.
.	.	.	.	32a\JJ	.	32cc#\JJ	.	.	.	.	.	.	.
8e\Lyy	.	8e\L	.	8g#\J)	.	8b\J)	.	.	.	.	.	.	.
8e\yy	.	8e\	.	4r	.	4r	.	.	.	.	.	.	.
8e\yy	.	8e\	.	.	.	.	.	.	.	.	.	.	.
8e\Jyy	.	8e\J	.	8b\	.	8dd\	.	.	.	.	.	.	.
=48	=48	=48	=48	=48	=48	=48	=48	=48	=48	=48	=48	=48	=48
*	*	*	*	*tremolo	*	*tremolo	*	*	*	*	*	*	*
!	!	!LO:TX:a:t=problem:repetycja tt.46-47	!	!	!	!	!	!	!	!	!	!	!
8e\Lyy	.	8e\Lyy	.	16dd\LL	.	16gg#X\LL	.	1e]	.	1e_	.	1ee	1ee_
.	.	.	.	16dd\	.	16gg#\	.	.	.	.	.	.	.
8e\yy	.	8e\yy	.	16dd\	.	16gg#\	.	.	.	.	.	.	.
.	.	.	.	16dd\	.	16gg#\	.	.	.	.	.	.	.
8e\yy	.	8e\yy	.	16dd\	.	16gg#\	.	.	.	.	.	.	.
.	.	.	.	16dd\	.	16gg#\	.	.	.	.	.	.	.
8e\Jyy	.	8e\Jyy	.	16dd\	.	16gg#\	.	.	.	.	.	.	.
.	.	.	.	16dd\JJ	.	16gg#\JJ	.	.	.	.	.	.	.
8e\Lyy	.	8e\Lyy	.	16cc#\LL	.	16aa\LL	.	.	.	.	.	.	.
.	.	.	.	16cc#\	.	16aa\	.	.	.	.	.	.	.
8e\yy	.	8e\yy	.	16cc#\	.	16aa\	.	.	.	.	.	.	.
.	.	.	.	16cc#\	.	16aa\	.	.	.	.	.	.	.
8e\yy	.	8e\yy	.	16cc#\	.	16aa\	.	.	.	.	.	.	.
.	.	.	.	16cc#\	.	16aa\	.	.	.	.	.	.	.
8e\Jyy	.	8e\Jyy	.	16cc#\	.	16aa\	.	.	.	.	.	.	.
.	.	.	.	16cc#\JJ	.	16aa\JJ	.	.	.	.	.	.	.
=49	=49	=49	=49	=49	=49	=49	=49	=49	=49	=49	=49	=49	=49
!	!	!	!	!	!	!	!	!	!LO:DY:a	!	!	!	!
!	!	!	!	!	!	!	!	!	!LO:DY:t=f.	!	!	!	!
8e\L	.	8e\Lyy	.	16gg#X\LL	.	16bb\LL	.	4e\	f	4e\]	.	2.ee\	2.ee\]
.	.	.	.	16gg#\	.	16bb\	.	.	.	.	.	.	.
8e\	.	8e\yy	.	16gg#\	.	16bb\	.	.	.	.	.	.	.
.	.	.	.	16gg#\JJ	.	16bb\JJ	.	.	.	.	.	.	.
8e\	.	8e\yy	.	16aa\LL	.	16ccc#\LL	.	4e\	.	4e\	.	.	.
.	.	.	.	16aa\	.	16ccc#\	.	.	.	.	.	.	.
8e\J	.	8e\Jyy	.	16aa\	.	16ccc#\	.	.	.	.	.	.	.
.	.	.	.	16aa\JJ	.	16ccc#\JJ	.	.	.	.	.	.	.
8E\L	.	8e\Lyy	.	16bb\LL	.	16ddd\LL	.	4e\	.	4e\	.	.	.
.	.	.	.	16bb\	.	16ddd\	.	.	.	.	.	.	.
8E\	.	8e\yy	.	16bb\	.	16ddd\	.	.	.	.	.	.	.
.	.	.	.	16bb\JJ	.	16ddd\JJ	.	.	.	.	.	.	.
8E\	.	8e\yy	.	16dd\LL	.	16gg#X\LL	.	4e\	.	4e\	.	4dd\	4gg#X\
.	.	.	.	16dd\	.	16gg#\	.	.	.	.	.	.	.
8E\J	.	8e\Jyy	.	16dd\	.	16gg#\	.	.	.	.	.	.	.
.	.	.	.	16dd\JJ	.	16gg#\JJ	.	.	.	.	.	.	.
!	!	!	!	!	!	!	!	!	!	!LO:LB:g=original	!	!	!
*	*	*	*	*Xtremolo	*	*Xtremolo	*	*	*	*	*	*	*
=50	=50	=50	=50	=50	=50	=50	=50	=50	=50	=50	=50	=50	=50
8AA/L	.	8e\L	.	8cc#\L	.	8aa\L	.	8A/L	.	8e\L	.	8cc#\L	8aa\L
8AA/	.	8e\	.	8ee\J	.	8ee\J	.	8A/J	.	8e\J	.	8ee\J	8ee\J
8AA/	.	8e\	.	4cc#\	.	4aa\	.	4A/	.	4e\	.	4cc#\	4aa\
8AA/J	.	8e\J	.	.	.	.	.	.	.	.	.	.	.
.	.	.	.	8qqbb/	.	8qqbb/	.	.	.	.	.	8qqbb/	8qqbb/
!	!	!	!	!	!	!	!	!LO:LB:g=original	!	!	!	!	!
8C#/L	.	8e\L	.	8aa\L	.	8aa\L	.	4A/	.	4e\	.	8aa\L	8aa\L
8C#/	.	8a\	.	16gg#X\L	.	16gg#X\L	.	.	.	.	.	16gg#X\L	16gg#X\L
.	.	.	.	16ff#\JJ	.	16ff#\JJ	.	.	.	.	.	16ff#\JJ	16ff#\JJ
.	.	.	.	8qqff#/	.	8qqff#/	.	.	.	.	.	8qqff#/	8qqff#/
8C#/	.	8a\	.	8ee\L	.	8ee\L	.	4A/	.	4e\	.	8ee\L	8ee\L
8C#/J	.	8a\J	.	16dd\L	.	16dd\L	.	.	.	.	.	16dd\L	16dd\L
.	.	.	.	16cc#\JJ	.	16cc#\JJ	.	.	.	.	.	16cc#\JJ	16cc#\JJ
=51	=51	=51	=51	=51	=51	=51	=51	=51	=51	=51	=51	=51	=51
8D\L	.	8a\L	.	8ff#\L	.	8ff#\L	.	8d\L	.	8f#\L	.	8ff#\L	8ff#\L
8D\	.	8a\	.	8aa\J	.	8aa\J	.	8d\J	.	8f#\J	.	8aa\J	8aa\J
8D\	.	8a\	.	4ff#\	.	4ff#\	.	4d\	.	4f#\	.	4ff#\	4ff#\
8D\J	.	8a\J	.	.	.	.	.	.	.	.	.	.	.
8D\L	.	8a\L	.	8ff#\L	.	8ff#\L	.	4d\	.	4f#\	.	8ff#\L	8ff#\L
8D\	.	8a\	.	16aa\L	.	16aa\L	.	.	.	.	.	16aa\L	16aa\L
.	.	.	.	16gg#X\JJ	.	16gg#X\JJ	.	.	.	.	.	16gg#X\JJ	16gg#X\JJ
.	.	.	.	8qqgg#/	.	8qqgg#/	.	.	.	.	.	8qqgg#/	8qqgg#/
8D\	.	8a\	.	8ff#\L	.	8ff#\L	.	4d\	.	4f#\	.	8ff#\L	8ff#\L
8D\J	.	8a\J	.	16ee\L	.	16ee\L	.	.	.	.	.	16ee\L	16ee\L
.	.	.	.	16dd\JJ	.	16dd\JJ	.	.	.	.	.	16dd\JJ	16dd\JJ
!	!	!LO:LB:g=original	!	!	!	!	!	!	!	!	!	!	!
=52	=52	=52	=52	=52	=52	=52	=52	=52	=52	=52	=52	=52	=52
8E\L	.	8a\L	.	8cc#\L	.	8cc#\L	.	4e\	.	4e\	.	8cc#\L	8cc#\L
8E\	.	16cc#\L	.	16ee\L	.	16ee\L	.	.	.	.	.	16ee\L	16ee\L
.	.	16a\JJ	.	16dd\JJ	.	16dd\JJ	.	.	.	.	.	16dd\JJ	16dd\JJ
.	.	8qqb/	.	8qqdd/	.	8qqdd/	.	.	.	.	.	8qqdd/	8qqdd/
8E\	.	8a\L	.	8cc#\L	.	8cc#\L	.	4e\	.	4e\	.	8cc#\L	8cc#\L
8E\J	.	16g#X\L	.	16b\L	.	16b\L	.	.	.	.	.	16b\L	16b\L
.	.	16a\JJ	.	16a\JJ	.	16a\JJ	.	.	.	.	.	16a\JJ	16a\JJ
8CC#/L	.	8e\L	.	4e/	.	4e/	.	4e\	.	4e\	.	4e/	4e/
8CC#/	.	8e\	.	.	.	.	.	.	.	.	.	.	.
8CC#/	.	8e\	.	4e/ 4b	.	4e/ 4b 4gg#X	.	4e\	.	4e\	.	4b\	4gg#X\
8CC#/J	.	8e\J	.	.	.	.	.	.	.	.	.	.	.
!	!	!	!	!LO:LB:g=original	!	!	!	!	!	!	!	!	!
=53	=53	=53	=53	=53	=53	=53	=53	=53	=53	=53	=53	=53	=53
!	!LO:DY:a	!	!LO:DY:a	!	!LO:DY:a	!	!	!	!	!	!	!	!
!	!	!	!	!	!LO:TX:a:t=p:	!	!	!	!	!	!	!	!
8AA/L	p	8e\L	p	8cc#\L	p	8aa\L	.	4A/	.	4e\	.	4cc#\	4aa\
8AA/	.	8e\	.	8ee\J	.	8ee\J	.	.	.	.	.	.	.
8AA/	.	8e\	.	4cc#\	.	4aa\	.	4r	.	4r	.	4r	4r
8AA/J	.	8e\J	.	.	.	.	.	.	.	.	.	.	.
.	.	.	.	8qqbb/	.	8qqbb/	.	.	.	.	.	.	.
8C#/L	.	8e\L	.	8aa\L	.	8aa\L	.	2r	.	2r	.	2r	2r
8C#/	.	8a\	.	16gg#X\L	.	16gg#X\L	.	.	.	.	.	.	.
.	.	.	.	16ff#\JJ	.	16ff#\JJ	.	.	.	.	.	.	.
.	.	.	.	8qqff#/	.	8qqff#/	.	.	.	.	.	.	.
8C#/	.	8a\	.	8ee\L	.	8ee\L	.	.	.	.	.	.	.
8C#/J	.	8a\J	.	16dd\L	.	16dd\L	.	.	.	.	.	.	.
.	.	.	.	16cc#\JJ	.	16cc#\JJ	.	.	.	.	.	.	.
!LO:LB:g=original	!	!	!	!	!	!LO:LB:g=original	!	!	!	!	!	!	!
=54	=54	=54	=54	=54	=54	=54	=54	=54	=54	=54	=54	=54	=54
!	!	!	!LO:DY:a	!	!	!	!	!	!	!	!	!	!
8D\L	.	8a\L	f	8ff#\L	.	8ff#\L	.	2r	.	2r	.	2r	2r
!	!	!	!	!	!LO:DY:a	!	!	!	!	!	!	!	!
!	!	!	!	!	!LO:DT:t=f:	!	!	!	!	!	!	!	!
8D\	.	8a\	.	8aa\J	f	8aa\J	.	.	.	.	.	.	.
8D\	.	8a\	.	4ff#\	.	4ff#\	.	.	.	.	.	.	.
8D\J	.	8a\J	.	.	.	.	.	.	.	.	.	.	.
8D\L	.	8a\L	.	8ff#\L	.	8ff#\L	.	4d\	.	4f#\	.	8ff#\L	8ff#\L
8D\	.	8a\	.	16aa\L	.	16aa\L	.	.	.	.	.	16aa\L	16aa\L
.	.	.	.	16gg#X\JJ	.	16gg#X\JJ	.	.	.	.	.	16gg#X\JJ	16gg#X\JJ
.	.	.	.	8qqgg#/	.	8qqgg#/	.	.	.	.	.	8qqgg#/	8qqgg#/
8D\	.	8a\	.	8ff#\L	.	8ff#\L	.	4d\	.	4f#\	.	8ff#\L	8ff#\L
8D\J	.	8a\J	.	16ee\L	.	16ee\L	.	.	.	.	.	16ee\L	16ee\L
.	.	.	.	16dd\JJ	.	16dd\JJ	.	.	.	.	.	16dd\JJ	16dd\JJ
!	!	!	!	!	!	!	!	!	!	!	!	!LO:LB:g=original	!LO:LB:g=original
=55	=55	=55	=55	=55	=55	=55	=55	=55	=55	=55	=55	=55	=55
8E\L	.	8a\L	.	8cc#\L	.	8cc#\L	.	4e\	.	4e\	.	8cc#\L	8cc#\L
8E\	.	16cc#\L	.	16ee\L	.	16ee\L	.	.	.	.	.	16ee\L	16ee\L
.	.	16b\JJ	.	16dd\JJ	.	16dd\JJ	.	.	.	.	.	16dd\JJ	16dd\JJ
.	.	8qqb/	.	8qqdd/	.	8qqdd/	.	.	.	.	.	8qqdd/	8qqdd/
8E\	.	8a\L	.	8cc#\L	.	8cc#\L	.	4e\	.	4e\	.	8cc#\L	8cc#\L
8E\J	.	16g#X\L	.	16b\L	.	16b\L	.	.	.	.	.	16b\L	16b\L
.	.	16a\JJ	.	16a\JJ	.	16a\JJ	.	.	.	.	.	16a\JJ	16a\JJ
8CC#/L	.	8e\L	.	4e/	.	4e/	.	4e\	.	4e\	.	4e/	4e/
8CC#/	.	8e\	.	.	.	.	.	.	.	.	.	.	.
8CC#/	.	8e\	.	4e/ 4b 4gg#X	.	4e/ 4b 4gg#X	.	4e\	.	4e\	.	4b\	4gg#X\
8CC#/J	.	8e\J	.	.	.	.	.	.	.	.	.	.	.
*Xtremolo	*	*Xtremolo	*	*	*	*	*	*	*	*	*	*	*
=56	=56	=56	=56	=56	=56	=56	=56	=56	=56	=56	=56	=56	=56
*	*	*	*	*^	*	*	*	*	*	*	*	*	*
4AA/	.	4A/	.	4e/ 4cc# 4aa	8ryy	.	4e/ 4cc# 4aa	.	4A/	.	4e\	.	4cc#\	4aa\
.	.	.	.	.	8ryy	.	.	.	.	.	.	.	.	.
4r	.	4r	.	(8cc#\L	8ryy	.	8aa\L	.	4r	.	4r	.	(8cc#\L	(8aa\L
.	.	.	.	8ee\J)	8ryy	.	8ccc#\J	.	.	.	.	.	8ee\J)	8ccc#\J)
4AA/	.	4A/	.	4ee/	4cc#\	.	4a/ 4ccc#	.	4A/	.	4e\	.	4ee`\	4ccc#\
4r	.	4r	.	(8cc#\L	4ryy	.	8aa\L	.	4r	.	4r	.	(8dd\L	(8aa\L
.	.	.	.	8ee\J)	.	.	8ccc#\J	.	.	.	.	.	8ee\J)	8ccc#\J)
=57	=57	=57	=57	=57	=57	=57	=57	=57	=57	=57	=57	=57	=57	=57
4AA/	.	4A/	.	4ee/	4cc#\	.	4a/ 4ccc#	.	4A/	.	4e\	.	4ee`\	4ccc#\
4r	.	4r	.	(8cc#\L	4ryy	.	8aa\L	.	4r	.	4r	.	(8cc#\L	8aa\L
.	.	.	.	8ee\J)	.	.	8ccc#\J	.	.	.	.	.	8ee\J)	8ccc#\J
4AA/	.	4A/	.	4A/ 4e 4cc#	2ryy	.	4e/ 4cc# 4aa	.	4A/	.	4e\	.	4cc#\	4aa\
4AA/	.	4A/	.	4A/ 4e 4cc#	.	.	4e/ 4cc# 4aa	.	4A/	.	4e\	.	4cc#\	4aa\
*	*	*	*	*v	*v	*	*	*	*	*	*	*	*	*
=58	=58	=58	=58	=58	=58	=58	=58	=58	=58	=58	=58	=58	=58
4AA/	.	4A/	.	4A/ 4e 4cc#	.	4e/ 4cc# 4aa	.	4A/	.	4e\	.	4cc#\	4aa\
(16A\LL	.	(16A/LL	.	(16a/LL	.	(16a/LL	.	4r	.	4r	.	(16a/LL	(16a/LL
16G#X\	.	16G#X/	.	16g#X/	.	16g#X/	.	.	.	.	.	16g#X/	16g#X/
16A\	.	16A/	.	16a/	.	16a/	.	.	.	.	.	16a/	16a/
16G#\JJ)	.	16G#/JJ)	.	16g#/JJ)	.	16g#/JJ)	.	.	.	.	.	16g#/JJ)	16g#/JJ)
4A\	.	4A/	.	4a/	.	4a/	.	4A/	.	4a\	.	4a/	4a/
(16AA/LL	.	(16A/LL	.	(>16A/LL	.	(16A/LL	.	4r	.	4r	.	4r	4r
16GG#X/	.	16G#/	.	16G#X/	.	16G#X/	.	.	.	.	.	.	.
16AA/	.	16A/	.	16A/	.	16A/	.	.	.	.	.	.	.
16GG#/JJ)	.	16G#/JJ)	.	16G#/JJ)	.	16G#/JJ)	.	.	.	.	.	.	.
=59	=59	=59	=59	=59	=59	=59	=59	=59	=59	=59	=59	=59	=59
!	!	!LO:TX:a:t=problem: mixed beam	!LO:DY:a	!	!LO:DY:a	!	!	!	!	!	!	!	!
!	!	!	!	!	!LO:D:t=p:	!	!	!	!	!	!	!	!
4AA/	.	(8A/L	p	(8A/L	p	4A/	.	4A/	.	4A/	.	00r	00r
.	.	8a\	.	8a/	.	.	.	.	.	.	.	.	.
4r	.	8g#X\	.	8g#X/	.	4r	.	4r	.	4r	.	.	.
.	.	8a\J)	.	8a/J)	.	.	.	.	.	.	.	.	.
=yy	=yy	=	=	=yy	=yy	=yy	=yy	=yy	=yy	=yy	=yy	=yy	=yy
2r	.	(8g#y\L	.	(8g#/L	.	2r	.	2r	.	2r	.	.	.
.	.	8a\	.	8a/	.	.	.	.	.	.	.	.	.
.	.	8g#\	.	8g#/	.	.	.	.	.	.	.	.	.
.	.	8a\J)	.	8a/J)	.	.	.	.	.	.	.	.	.
!	!	!LO:LB:g=original	!	!LO:LB:g=original	!	!	!	!	!	!	!	!	!
=60	=60	=60	=60	=60	=60	=60	=60	=60	=60	=60	=60	=60	=60
00r	.	(8gn\L	.	(8gn/L	.	2r	.	00r	.	00r	.	.	.
.	.	8a\	.	8a/	.	.	.	.	.	.	.	.	.
.	.	8g\	.	8g/	.	.	.	.	.	.	.	.	.
.	.	8a\J)	.	8a/J	.	.	.	.	.	.	.	.	.
.	.	(8g\L	.	8g/L	.	4.ccc#\	.	.	.	.	.	.	.
.	.	8a\	.	8a/	.	.	.	.	.	.	.	.	.
.	.	8g\	.	8g/	.	.	.	.	.	.	.	.	.
.	.	8a\J)	.	8a/J)	.	16bb\LL	.	.	.	.	.	.	.
.	.	.	.	.	.	16ccc#\JJ	.	.	.	.	.	.	.
!	!	!	!	!	!	!LO:LB:g=original	!	!	!	!	!	!	!
=61	=61	=61	=61	=61	=61	=61	=61	=61	=61	=61	=61	=61	=61
.	.	(8f#\L	.	(8f#/L	.	(4.ddd\	.	.	.	.	.	.	.
.	.	8a\	.	8a/	.	.	.	.	.	.	.	.	.
.	.	8g\	.	8f#/	.	.	.	.	.	.	.	.	.
.	.	8a\J)	.	8a/J	.	16ccc#\LL	.	.	.	.	.	.	.
.	.	.	.	.	.	16bb\JJ)	.	.	.	.	.	.	.
.	.	4f#\	.	8f#/L	.	4aa\	.	.	.	.	.	.	.
.	.	.	.	8a/	.	.	.	.	.	.	.	.	.
.	.	8d\	.	8d/	.	8ff#\	.	.	.	.	.	.	.
.	.	8r	.	8a/J)	.	8r	.	.	.	.	.	.	.
=62	=62	=62	=62	=62	=62	=62	=62	=62	=62	=62	=62	=62	=62
.	.	8c#`\	.	(8c#/L	.	8ee`\	.	.	.	.	.	.	.
.	.	8r	.	8a/	.	8r	.	.	.	.	.	.	.
.	.	8d`\	.	8d/	.	8ff#`\	.	.	.	.	.	.	.
.	.	8r	.	8a/J	.	8r	.	.	.	.	.	.	.
.	.	8e`\	.	8e/L	.	8gg`\	.	.	.	.	.	.	.
.	.	8r	.	8a/	.	8r	.	.	.	.	.	.	.
.	.	8c#`\	.	8c#/	.	8ee`\	.	.	.	.	.	.	.
.	.	8r	.	8a/J)	.	8r	.	.	.	.	.	.	.
=63	=63	=63	=63	=63	=63	=63	=63	=63	=63	=63	=63	=63	=63
.	.	(8d\L	.	(8d/L	.	(32ff#\LLL	.	.	.	.	.	00r	00r
.	.	.	.	.	.	32gg\JJ	.	.	.	.	.	.	.
.	.	.	.	.	.	8.aa\J)	.	.	.	.	.	.	.
.	.	8a\	.	8a/	.	.	.	.	.	.	.	.	.
.	.	8g#X\	.	8g#X/	.	4r	.	.	.	.	.	.	.
.	.	8a\J	.	8a/J	.	.	.	.	.	.	.	.	.
.	.	8g#\L	.	8g#/L	.	2r	.	.	.	.	.	.	.
.	.	8a\	.	8a/	.	.	.	.	.	.	.	.	.
.	.	8g#\	.	8g#/	.	.	.	.	.	.	.	.	.
.	.	8a\J)	.	8a/J)	.	.	.	.	.	.	.	.	.
=64	=64	=64	=64	=64	=64	=64	=64	=64	=64	=64	=64	=64	=64
00r	.	(8gn\L	.	(8gn/L	.	2r	.	00r	.	00r	.	.	.
.	.	8a\	.	8a/	.	.	.	.	.	.	.	.	.
.	.	8g\	.	8g/	.	.	.	.	.	.	.	.	.
.	.	8a\J	.	8a/J	.	.	.	.	.	.	.	.	.
.	.	8g\L	.	8g/L	.	4.ccc#\	.	.	.	.	.	.	.
.	.	8a\	.	8a/	.	.	.	.	.	.	.	.	.
.	.	8g\	.	8g/	.	.	.	.	.	.	.	.	.
.	.	8a\J)	.	8a/J)	.	16bb\LL	.	.	.	.	.	.	.
.	.	.	.	.	.	16ccc#\JJ	.	.	.	.	.	.	.
=65	=65	=65	=65	=65	=65	=65	=65	=65	=65	=65	=65	=65	=65
.	.	(8f#\L	.	8f#/L	.	(4.ddd\	.	.	.	.	.	.	.
.	.	8a\	.	8a/	.	.	.	.	.	.	.	.	.
.	.	8f#\	.	8f#/	.	.	.	.	.	.	.	.	.
.	.	8a\J)	.	8a/J	.	16ccc#\LL	.	.	.	.	.	.	.
.	.	.	.	.	.	16bb\JJ)	.	.	.	.	.	.	.
.	.	4f#\	.	8f#/L	.	4aa\	.	.	.	.	.	.	.
.	.	.	.	8a/	.	.	.	.	.	.	.	.	.
.	.	8d\	.	8d/	.	8ff#`\	.	.	.	.	.	.	.
.	.	8r	.	8a/J	.	8r	.	.	.	.	.	.	.
=66	=66	=66	=66	=66	=66	=66	=66	=66	=66	=66	=66	=66	=66
.	.	8c#`\	.	8c#/L	.	8ee`\	.	.	.	.	.	.	.
.	.	8r	.	8a/	.	8r	.	.	.	.	.	.	.
.	.	8d`\	.	8d/	.	8ff#`\	.	.	.	.	.	.	.
.	.	8r	.	8a/J	.	8r	.	.	.	.	.	.	.
.	.	8e`\	.	8e/L	.	8gg`\	.	.	.	.	.	.	.
.	.	8r	.	8a/	.	8r	.	.	.	.	.	.	.
.	.	8c#`\	.	8c#/	.	8ee`\	.	.	.	.	.	.	.
.	.	8r	.	8a/J	.	8r	.	.	.	.	.	.	.
=67	=67	=67	=67	=67	=67	=67	=67	=67	=67	=67	=67	=67	=67
.	.	8d`\	.	8d/L	.	8ff#\	.	.	.	.	.	0r	0r
.	.	8r	.	8a/	.	8r	.	.	.	.	.	.	.
.	.	8f#`\	.	8f#/	.	8aa\	.	.	.	.	.	.	.
.	.	8r	.	8a/J	.	8r	.	.	.	.	.	.	.
!	!	!LO:LB:g=original	!	!LO:LB:g=original	!	!	!	!	!	!	!	!	!
.	.	8e`\	.	8e/L	.	8gg\	.	.	.	.	.	.	.
.	.	8r	.	8a/	.	8r	.	.	.	.	.	.	.
.	.	8d`\	.	8d/	.	8ff#\	.	.	.	.	.	.	.
.	.	8r	.	8a/J	.	8r	.	.	.	.	.	.	.
!	!	!	!	!	!	!LO:LB:g=original	!	!	!	!	!	!	!
=68	=68	=68	=68	=68	=68	=68	=68	=68	=68	=68	=68	=68	=68
1r	.	8c#`\	.	8c#/L	.	8ee\	.	1r	.	1r	.	.	.
.	.	8r	.	8a/	.	8r	.	.	.	.	.	.	.
.	.	8f#`\	.	8f#/	.	8aa\	.	.	.	.	.	.	.
.	.	8r	.	8a/J	.	8r	.	.	.	.	.	.	.
.	.	8e`\	.	8e/L	.	8gg\	.	.	.	.	.	.	.
.	.	8r	.	8a/	.	8r	.	.	.	.	.	.	.
.	.	8d`\	.	8d/	.	8ff#\	.	.	.	.	.	.	.
.	.	8r	.	8a/J	.	8r	.	.	.	.	.	.	.
=69	=69	=69	=69	=69	=69	=69	=69	=69	=69	=69	=69	=69	=69
*tremolo	*	*	*	*	*	*	*	*	*	*	*	*	*
!	!LO:DY:a	!	!	!	!	!	!	!	!	!	!	!	!
8A\L	p	8c#\L	.	4c#/	.	4ee\	.	[>1A	.	[<1a	.	[>1a	[<1aa
8A\	.	8a\	.	.	.	.	.	.	.	.	.	.	.
8A\	.	8a\	.	8r	.	8r	.	.	.	.	.	.	.
8A\J	.	8a\J	.	8cc#\	.	8cc#\	.	.	.	.	.	.	.
.	.	.	.	.	.	.	.	.	.	.	.	.	.
.	.	.	.	.	.	.	.	.	.	.	.	.	.
*	*	*tremolo	*	*	*	*	*	*	*	*	*	*	*
8A\L	.	8a\L	.	(32ee\L	.	(32ee\L	.	.	.	.	.	.	.
.	.	.	.	32dd\	.	32dd\	.	.	.	.	.	.	.
.	.	.	.	8.cc#\)J	.	8.cc#\)J	.	.	.	.	.	.	.
8A\	.	8a\	.	.	.	.	.	.	.	.	.	.	.
.	.	.	.	.	.	.	.	.	.	.	.	.	.
8A\	.	8a\	.	8r	.	8r	.	.	.	.	.	.	.
8A\J	.	8a\J	.	8ee\	.	8ee\	.	.	.	.	.	.	.
=70	=70	=70	=70	=70	=70	=70	=70	=70	=70	=70	=70	=70	=70
8A\L	.	8a\L	.	(32ff#\LLL	.	(32ff#\LLL	.	1A_>	.	1a_<	.	1a_>	1aa_<
.	.	.	.	32ee\JJ	.	32ee\JJ	.	.	.	.	.	.	.
!	!	!	!	!	!	!LO:N:vis=8	!	!	!	!	!	!	!
.	.	.	.	8.dd\J)	.	8.dd\J)	.	.	.	.	.	.	.
8A\	.	8a\	.	.	.	.	.	.	.	.	.	.	.
8A\	.	8a\	.	8r	.	8r	.	.	.	.	.	.	.
8A\J	.	8a\J	.	8dd\	.	8dd\	.	.	.	.	.	.	.
8A\L	.	8a\L	.	(32ff#\LLL	.	32ff#\LLL	.	.	.	.	.	.	.
.	.	.	.	32ee\JJ	.	32ee\JJ	.	.	.	.	.	.	.
.	.	.	.	8.dd\J)	.	8.dd\J	.	.	.	.	.	.	.
8A\	.	8a\	.	.	.	.	.	.	.	.	.	.	.
8A\	.	8a\	.	8r	.	8r	.	.	.	.	.	.	.
8A\J	.	8a\J	.	8dd\	.	8ff#\	.	.	.	.	.	.	.
=71	=71	=71	=71	=71	=71	=71	=71	=71	=71	=71	=71	=71	=71
!LO:TX:a:t=problem:repetycja tt.69-70	!LO:DY:a	!	!	!	!	!	!	!	!	!	!	!	!
8A\Lyy	p	8a\L	.	(32ee\LLL	.	(32gg\LLL	.	1A_>	.	1a_<	.	1a_>	1aa_<
.	.	.	.	32dd\JJ	.	32ff#\JJ	.	.	.	.	.	.	.
.	.	.	.	8.cc#\J)	.	8.ee\J)	.	.	.	.	.	.	.
8A\yy	.	8a\	.	.	.	.	.	.	.	.	.	.	.
8A\yy	.	8a\	.	8r	.	8r	.	.	.	.	.	.	.
8A\Jyy	.	8a\J	.	8cc#\	.	8ee\	.	.	.	.	.	.	.
8A\Lyy	.	8a\L	.	(32ee\LLL	.	(32gg\LLL	.	.	.	.	.	.	.
.	.	.	.	32dd\JJ	.	32ff#\JJ	.	.	.	.	.	.	.
!	!	!	!	!	!	!LO:N:vis=8	!	!	!	!	!	!	!
.	.	.	.	8.cc#\J)	.	8.ee\J)	.	.	.	.	.	.	.
8A\yy	.	8a\	.	.	.	.	.	.	.	.	.	.	.
8A\yy	.	8a\	.	8r	.	8r	.	.	.	.	.	.	.
8A\Jyy	.	8a\J	.	8ee\	.	8gg\	.	.	.	.	.	.	.
=72	=72	=72	=72	=72	=72	=72	=72	=72	=72	=72	=72	=72	=72
*	*	*	*	*tremolo	*	*tremolo	*	*	*	*	*	*	*
!	!	!LO:TX:a:t=problem:repetycja tt.70-71	!	!	!	!	!	!	!	!	!	!	!
8A\Lyy	.	8a\Lyy	.	16gg\LL	.	16ccc#\LL	.	1A_>	.	1a_<	.	1a_>	1aa]
.	.	.	.	16gg\	.	16ccc#\	.	.	.	.	.	.	.
8A\yy	.	8a\yy	.	16gg\	.	16ccc#\	.	.	.	.	.	.	.
.	.	.	.	16gg\	.	16ccc#\	.	.	.	.	.	.	.
8A\yy	.	8a\yy	.	16gg\	.	16ccc#\	.	.	.	.	.	.	.
.	.	.	.	16gg\	.	16ccc#\	.	.	.	.	.	.	.
8A\Jyy	.	8a\Jyy	.	16gg\	.	16ccc#\	.	.	.	.	.	.	.
.	.	.	.	16gg\JJ	.	16ccc#\JJ	.	.	.	.	.	.	.
8A\Lyy	.	8a\Lyy	.	16ff#\LL	.	16ddd\LL	.	.	.	.	.	.	.
.	.	.	.	16ff#\	.	16ddd\	.	.	.	.	.	.	.
8A\yy	.	8a\yy	.	16ff#\	.	16ddd\	.	.	.	.	.	.	.
.	.	.	.	16ff#\	.	16ddd\	.	.	.	.	.	.	.
8A\yy	.	8a\yy	.	16ff#\	.	16ddd\	.	.	.	.	.	.	.
.	.	.	.	16ff#\	.	16ddd\	.	.	.	.	.	.	.
8A\Jyy	.	8a\Jyy	.	16ff#\	.	16ddd\	.	.	.	.	.	.	.
.	.	.	.	16ff#\JJ	.	16ddd\JJ	.	.	.	.	.	.	.
!	!	!	!	!	!	!	!	!	!	!LO:LB:g=original	!	!	!
=73	=73	=73	=73	=73	=73	=73	=73	=73	=73	=73	=73	=73	=73
!	!LO:DY:a	!	!	!	!LO:DY:a	!	!	!	!LO:DY:a	!	!	!	!
!	!	!	!	!	!LO:DY:t=f:	!	!	!	!LO:DY:t=f.	!	!	!	!
8A\L	f	8a\Lyy	.	16ee\LL	f	16ccc#\LL	.	4A/]	f	4a\]	.	2.a/]	2.aa\
.	.	.	.	16ee\	.	16ccc#\	.	.	.	.	.	.	.
8A\	.	8a\yy	.	16ee\	.	16ccc#\	.	.	.	.	.	.	.
.	.	.	.	16ee\JJ	.	16ccc#\JJ	.	.	.	.	.	.	.
8A\	.	8a\yy	.	16ff#\LL	.	16ddd\LL	.	4A/	.	4a\	.	.	.
.	.	.	.	16ff#\	.	16ddd\	.	.	.	.	.	.	.
8A\J	.	8a\Jyy	.	16ff#\	.	16ddd\	.	.	.	.	.	.	.
.	.	.	.	16ff#\JJ	.	16ddd\JJ	.	.	.	.	.	.	.
8AA/L	.	8a\Lyy	.	16gg\LL	.	16eee\LL	.	4A/	.	4a\	.	.	.
.	.	.	.	16gg\	.	16eee\	.	.	.	.	.	.	.
8AA/	.	8a\yy	.	16gg\	.	16eee\	.	.	.	.	.	.	.
.	.	.	.	16gg\JJ	.	16eee\JJ	.	.	.	.	.	.	.
8AA/	.	8a\yy	.	16gg\LL	.	16ccc#\LL	.	4A/	.	4a\	.	4gg\	4ccc#\
.	.	.	.	16gg\	.	16ccc#\	.	.	.	.	.	.	.
8AA/J	.	8a\Jyy	.	16gg\	.	16ccc#\	.	.	.	.	.	.	.
.	.	.	.	16gg\JJ	.	16ccc#\JJ	.	.	.	.	.	.	.
!	!	!	!	!	!	!	!	!LO:LB:g=original	!	!	!	!	!
*	*	*	*	*Xtremolo	*	*Xtremolo	*	*	*	*	*	*	*
=74	=74	=74	=74	=74	=74	=74	=74	=74	=74	=74	=74	=74	=74
8D\L	.	8a\L	.	8ff#\L	.	8ddd\L	.	8d\L	.	8f#\L	.	8ff#\L	8ddd\L
8D\	.	8a\	.	8aa\J	.	8aa\J	.	8d\J	.	8f#\J	.	8aa\J	8aa\J
8D\	.	8a\	.	4ff#\	.	4ddd\	.	4d\	.	4f#\	.	4ff#\	4ddd\
8D\J	.	8a\J	.	.	.	.	.	.	.	.	.	.	.
.	.	.	.	.	.	8qqeee/	.	.	.	.	.	.	.
8F#\L	.	8a\L	.	8ddd\L	.	8ddd\L	.	4D/	.	4d\	.	8ddd\L	8ddd\L
8F#\	.	8d\	.	16ccc#\L	.	16ccc#\L	.	.	.	.	.	16ccc#\L	16ccc#\L
.	.	.	.	16bb\JJ	.	16bb\JJ	.	.	.	.	.	16bb\JJ	16bb\JJ
!	!	!	!	!	!	!LO:LB:g=original	!	!	!	!	!	!	!
.	.	.	.	8qqbb/	.	8qqbb/	.	.	.	.	.	8qqbb/	8qqbb/
8F#\	.	8d\	.	8aa\L	.	8aa\L	.	4D/	.	4d\	.	8aa\L	8aa\L
8F#\J	.	8d\J	.	16gg\L	.	16gg\L	.	.	.	.	.	16gg\L	16gg\L
.	.	.	.	16ff#\JJ	.	16ff#\JJ	.	.	.	.	.	16ff#\JJ	16ff#\JJ
!	!	!	!	!LO:LB:g=original	!	!	!	!	!	!	!	!	!LO:LB:g=original
=75	=75	=75	=75	=75	=75	=75	=75	=75	=75	=75	=75	=75	=75
8G\L	.	8d\L	.	8bb\L	.	8bb\L	.	8D/L	.	8d\L	.	8gg\L	8bb\L
8G\	.	8d\	.	8ddd\J	.	8ddd\J	.	8D/J	.	8d\J	.	8bb\J	8ddd\J
8G\	.	8d\	.	4bb\	.	4bb\	.	4D/	.	4d\	.	4gg\	4bb\
8G\J	.	8d\J	.	.	.	.	.	.	.	.	.	.	.
!	!	!	!	!	!	!	!	!	!	!	!	!LO:LB:g=original	!
8G\L	.	8d\L	.	8bb\L	.	8bb\L	.	4D/	.	4d\	.	8bb\L	8bb\L
8G\	.	8d\	.	16ddd\L	.	16ddd\L	.	.	.	.	.	16ddd\L	16ddd\L
.	.	.	.	16ccc#\JJ	.	16ccc#\JJ	.	.	.	.	.	16ccc#\JJ	16ccc#\JJ
.	.	.	.	8qqccc#/	.	8qqccc#/	.	.	.	.	.	8qqccc#/	8qqccc#/
8G\	.	8d\	.	8bb\L	.	8bb\L	.	4D/	.	4d\	.	8bb\L	8bb\L
8G\J	.	8d\J	.	16aa\L	.	16aa\L	.	.	.	.	.	16aa\L	16aa\L
.	.	.	.	16gg\JJ	.	16gg\JJ	.	.	.	.	.	16gg\JJ	16gg\JJ
=76	=76	=76	=76	=76	=76	=76	=76	=76	=76	=76	=76	=76	=76
8A\L	.	8d\L	.	8ff#\L	.	8ff#\L	.	4d\	.	4f#\	.	8ff#\L	8ff#\L
8A\	.	16f#\L	.	16aa\L	.	16aa\L	.	.	.	.	.	16aa\L	16aa\L
.	.	16e\JJ	.	16gg\JJ	.	16gg\JJ	.	.	.	.	.	16gg\JJ	16gg\JJ
.	.	8qqe/	.	8qqgg/	.	8qqaa/	.	.	.	.	.	8qqgg/	8qqgg/
8A\	.	8d\L	.	8ff#\L	.	8gg\L	.	4d\	.	4f#\	.	8ff#\L	8ff#\L
8A\J	.	16c#\L	.	16ee\L	.	16ff#\L	.	.	.	.	.	16ee\L	16ee\L
.	.	16d\JJ	.	16dd\JJ	.	16ee\JJ	.	.	.	.	.	16dd\JJ	16dd\JJ
8AA/L	.	8A/L	.	4A/	.	4A/	.	4A/	.	4e\	.	4a/	4a/
8AA/	.	8A/	.	.	.	.	.	.	.	.	.	.	.
8AA/	.	8A/	.	4A/ 4e	.	4A/ 4e 4cc#	.	4A/	.	4e\	.	4e/	4cc#\
8AA/J	.	8A/J	.	.	.	.	.	.	.	.	.	.	.
!LO:LB:g=original	!	!	!	!	!	!	!	!	!	!	!	!	!
=77	=77	=77	=77	=77	=77	=77	=77	=77	=77	=77	=77	=77	=77
!	!	!	!LO:DY:a	!	!LO:DY:a	!	!LO:DY:a	!	!	!	!	!	!
!	!	!	!	!	!LO:DY:t=p:	!	!LO:DY:t=p:	!	!	!	!	!	!
8D\L	.	8A/L	p	8f#/L	p	8dd\L	p	4F#/	.	4d\	.	4f#/	4dd\
8D\	.	8A/	.	8a/J	.	8a\J	.	.	.	.	.	.	.
8D\	.	8A/	.	4f#/	.	4dd\	.	4r	.	4r	.	4r	4r
8D\J	.	8A/J	.	.	.	.	.	.	.	.	.	.	.
.	.	.	.	8qqee/	.	8qqee/	.	.	.	.	.	.	.
8F#\L	.	8A/L	.	8dd\L	.	8dd\L	.	2r	.	2r	.	2r	2r
8F#\	.	8d/	.	16cc#\L	.	16cc#\L	.	.	.	.	.	.	.
.	.	.	.	16b\JJ	.	16b\JJ	.	.	.	.	.	.	.
.	.	.	.	8qqb/	.	8qqb/	.	.	.	.	.	.	.
8F#\	.	8d/	.	8a/L	.	8a/L	.	.	.	.	.	.	.
8F#\J	.	8d/J	.	16g/L	.	16g/L	.	.	.	.	.	.	.
.	.	.	.	16f#/JJ	.	16f#/JJ	.	.	.	.	.	.	.
=78	=78	=78	=78	=78	=78	=78	=78	=78	=78	=78	=78	=78	=78
!	!	!	!LO:DY:a	!	!	!	!	!	!	!	!	!	!
8G\L	.	8d\L	f	8b\L	.	8b\L	.	2r	.	2r	.	2r	2r
8G\	.	8d\	.	8dd\J	.	8dd\J	.	.	.	.	.	.	.
8G\	.	8d\	.	4b\	.	4b\	.	.	.	.	.	.	.
8G\J	.	8d\J	.	.	.	.	.	.	.	.	.	.	.
!	!	!	!	!	!LO:DY:a	!	!	!	!	!	!	!	!
!	!	!	!	!	!LO:DY:t=f:	!	!	!	!	!	!	!	!
8G\L	.	8d\L	.	8bb\L	f	8bb\L	.	4D/	.	4d\	.	8bb\L	8bb\L
8G\	.	8d\	.	16ddd\L	.	16ddd\L	.	.	.	.	.	16ddd\L	16ddd\L
.	.	.	.	16ccc#\JJ	.	16ccc#\JJ	.	.	.	.	.	16ccc#\J	16ccc#\JJ
!	!	!	!	!LO:TX:a:t=SIC!:s:ccc#	!	!	!	!	!	!	!	!	!
.	.	.	.	8qqbb/	.	8qqccc#/	.	.	.	.	.	.	8qqccc#/
8G\	.	8d\	.	8bb\L	.	8bb\L	.	4D/	.	4d\	.	8bb\	8bb\L
8G\J	.	8d\J	.	16aa\L	.	16aa\L	.	.	.	.	.	16aa\L	16aa\L
.	.	.	.	16gg\JJ	.	16gg\JJ	.	.	.	.	.	16gg\JJ	16gg\JJ
!	!	!LO:LB:g=original	!	!	!	!	!	!	!	!	!	!	!
=79	=79	=79	=79	=79	=79	=79	=79	=79	=79	=79	=79	=79	=79
!	!	!	!	!	!	!	!	!	!	!	!LO:DY:a	!	!
!	!	!	!	!	!	!	!	!	!	!	!LO:DY:t=f:	!	!
8A\L	.	8d\L	.	8ff#\L	.	8ff#\L	.	4d\	.	4f#\	f	8ff#\L	8ff#\L
8A\	.	16f#\L	.	16aa\L	.	16aa\L	.	.	.	.	.	16aa\L	16aa\L
.	.	16e\JJ	.	16gg\JJ	.	16gg\JJ	.	.	.	.	.	16gg\JJ	16gg\JJ
.	.	8qqe/	.	8qqgg/	.	8qqgg/	.	.	.	.	.	8qqgg/	8qqgg/
8A\	.	(8d\L	.	(8ff#\L	.	8ff#\L	.	4d\	.	4f#\	.	8ff#\L	8ff#\L
8A\J	.	16c#\L	.	16ee\L	.	16ee\L	.	.	.	.	.	16ee\L	16ee\L
.	.	16d\JJ)	.	16dd\JJ)	.	16dd\JJ	.	.	.	.	.	16dd\JJ	16dd\JJ
8AA/L	.	8A/L	.	4A/	.	4A/	.	4A/	.	4e\	.	4a/	4b/
8AA/	.	8A/	.	.	.	.	.	.	.	.	.	.	.
8AA/	.	8A/	.	4A/ 4e 4cc#	.	4A/ 4e 4cc#	.	4A/	.	4e\	.	4e/	4cc#\
8AA/J	.	8A/J	.	.	.	.	.	.	.	.	.	.	.
*	*	*Xtremolo	*	*	*	*	*	*	*	*	*	*	*
=80	=80	=80	=80	=80	=80	=80	=80	=80	=80	=80	=80	=80	=80
4D\	.	4d\	.	4d/ 4f# 4a	.	4A/ 4f# 4dd	.	4F#/	.	4d\	.	4f#/	4dd\
4r	.	4r	.	8r	.	8r	.	4r	.	4r	.	4r	4r
.	.	.	.	16r	.	16r	.	.	.	.	.	.	.
.	.	.	.	(48A/LLL	.	(48A/LLL	.	.	.	.	.	.	.
.	.	.	.	48B/	.	48B/	.	.	.	.	.	.	.
.	.	.	.	48c#/JJJ)	.	48c#/JJJ)	.	.	.	.	.	.	.
4D`\	.	4D/	.	4d`/	.	4d`/	.	4D/	.	4D/	.	4d/	4d/
4D`\	.	4D/	.	4d`/	.	4d`/	.	4D/	.	4D/	.	4d/	4d/
!	!	!	!	!	!	!LO:LB:g=original	!	!	!	!	!	!	!
=81	=81	=81	=81	=81	=81	=81	=81	=81	=81	=81	=81	=81	=81
4D`\	.	4D/	.	4d`/	.	4d/	.	4D/	.	4D/	.	4d/	4d/
4r	.	4r	.	8r	.	8r	.	4r	.	4r	.	4r	4r
.	.	.	.	16r	.	16r	.	.	.	.	.	.	.
!	!	!	!	!LO:N:vis=16	!	!	!	!	!	!	!	!	!
.	.	.	.	(32d/LLL	.	(32d/LLL	.	.	.	.	.	.	.
!	!	!	!	!LO:N:vis=16	!	!	!	!	!	!	!	!	!
.	.	.	.	32e/JJJ)	.	32e/JJJ)	.	.	.	.	.	.	.
4F#`\	.	4F#/	.	4f#/	.	4f#/	.	4F#/	.	4F#/	.	4f#/	4f#/
4F#`\	.	4F#/	.	4f#/	.	4f#/	.	4F#/	.	4F#/	.	4f#/	4f#/
!	!	!	!	!LO:LB:g=original	!	!	!	!	!	!	!	!	!
=82	=82	=82	=82	=82	=82	=82	=82	=82	=82	=82	=82	=82	=82
4F#\	.	4F#/	.	4f#/	.	4f#/	.	4F#/	.	4F#/	.	4f#/	4f#/
4r	.	4r	.	8r	.	8r	.	4r	.	4r	.	4r	4r
.	.	.	.	16r	.	16r	.	.	.	.	.	.	.
!	!	!	!	!LO:N:vis=16	!	!	!	!	!	!	!	!	!
.	.	.	.	(32f#/LLL	.	(32f#/LLL	.	.	.	.	.	.	.
!	!	!	!	!LO:N:vis=16	!	!	!	!	!	!	!	!	!
.	.	.	.	32g/JJJ)	.	32g/JJJ)	.	.	.	.	.	.	.
4A\	.	4A/	.	4a/	.	4a`/	.	4A/	.	4A/	.	4a/	4a/
4A\	.	4A/	.	4a/	.	4a`/	.	4A/	.	4A/	.	4a/	4a/
!	!	!	!	!	!	!	!	!	!	!	!	!	!LO:LB:g=original
=83	=83	=83	=83	=83	=83	=83	=83	=83	=83	=83	=83	=83	=83
4.A\	.	4.A/	.	4.a/	.	4a/	.	4A/	.	4A/	.	4.a/	4.a/
.	.	.	.	.	.	8g/L	.	4r	.	4r	.	.	.
16G\LL	.	16G/LL	.	16g/LL	.	8f#/J	.	.	.	.	.	16g/LL	16g/LL
16F#\JJ	.	16F#/JJ	.	16f#/JJ	.	.	.	.	.	.	.	16f#/JJ	16f#/JJ
8G\L	.	8G/L	.	8g/L	.	8g/L	.	2r	.	2r	.	8g/L	8g/L
8A\	.	8A/	.	8a/	.	8a/	.	.	.	.	.	8a/	8a/
8B\	.	8B/	.	8b/	.	8b/	.	.	.	.	.	8b/	8b/
8c#\J	.	8c#/J	.	8cc#/J	.	8cc#/J	.	.	.	.	.	8cc#/J	8cc#/J
!	!	!	!	!	!	!	!	!	!	!	!	!LO:LB:g=original	!
=84	=84	=84	=84	=84	=84	=84	=84	=84	=84	=84	=84	=84	=84
4d\	.	4d\	.	4dd\	.	4dd\	.	4D/	.	4d\	.	4dd\	4dd\
4r	.	8r	.	8r	.	8r	.	4r	.	4r	.	4r	4r
!	!	!	!LO:DY:a	!	!	!	!	!	!	!	!	!	!
.	.	16r	f	16r	.	16r	.	.	.	.	.	.	.
.	.	(48A/LLL	.	(48A/LLL	.	(48a\LLL	.	.	.	.	.	.	.
.	.	48B/	.	48B/	.	48b\	.	.	.	.	.	.	.
.	.	48c#/JJJ)	.	48c#/JJJ)	.	48cc#\JJJ)	.	.	.	.	.	.	.
4D\	.	4d`/	.	4d`/	.	4dd\	.	4D/	.	4d\	.	4dd\	4dd\
4D\	.	4d`/	.	4d`/	.	4dd\	.	4D/	.	4d\	.	4dd\	4dd\
!	!	!	!	!	!	!	!	!	!	!LO:LB:g=original	!	!	!
=85	=85	=85	=85	=85	=85	=85	=85	=85	=85	=85	=85	=85	=85
4D\	.	4d/	.	4d/	.	4dd\	.	4D/	.	4d\	.	4dd\	4dd\
4r	.	8r	.	8r	.	8r	.	4r	.	4r	.	4r	4r
.	.	16r	.	16r	.	16r	.	.	.	.	.	.	.
!	!	!LO:N:vis=16	!	!LO:N:vis=16	!	!LO:N:vis=16	!	!	!	!	!	!	!
.	.	(32d\LLL	.	(32d/LLL	.	(32dd\LLL	.	.	.	.	.	.	.
!	!	!LO:N:vis=16	!	!LO:N:vis=16	!	!LO:N:vis=16	!	!	!	!	!	!	!
.	.	32e\JJJ)	.	32e/JJJ)	.	32ee\JJJ)	.	.	.	.	.	.	.
4F#\	.	4f#\	.	4f#`/	.	4ff#\	.	4F#/	.	4f#\	.	4ff#\	4ff#\
4F#\	.	4f#\	.	4f#`/	.	4ff#\	.	4F#/	.	4f#\	.	4ff#\	4ff#\
=86	=86	=86	=86	=86	=86	=86	=86	=86	=86	=86	=86	=86	=86
4F#\	.	4f#\	.	4f#/	.	4ff#\	.	4F#/	.	4f#\	.	4ff#\	4ff#\
4r	.	8r	.	8r	.	8r	.	4r	.	4r	.	4r	4r
.	.	16r	.	16r	.	16r	.	.	.	.	.	.	.
!	!	!	!	!LO:N:vis=16	!	!	!	!	!	!	!	!	!
.	.	(32f#\LLL	.	(32f#/LLL	.	(32ff#\LLL	.	.	.	.	.	.	.
!	!	!	!	!LO:N:vis=16	!	!	!	!	!	!	!	!	!
.	.	32g\JJJ)	.	32g/JJJ)	.	32gg\JJJ)	.	.	.	.	.	.	.
4A\	.	4a\	.	4a`/	.	4aa\	.	4A/	.	4a\	.	4aa\	4aa\
4A\	.	4a\	.	4a`/	.	4aa\	.	4A/	.	4a\	.	4aa\	4aa\
!	!	!LO:LB:g=original	!	!	!	!	!	!LO:LB:g=original	!	!	!	!	!
=87	=87	=87	=87	=87	=87	=87	=87	=87	=87	=87	=87	=87	=87
4.A\	.	4.a\	.	4.a/	.	4.aa\	.	4d\	.	4a\	.	4.aa\	4.aa\
.	.	.	.	.	.	.	.	4r	.	4r	.	.	.
16G\LL	.	16g\LL	.	16g/LL	.	16gg\LL	.	.	.	.	.	16gg\LL	16gg\LL
16F#\JJ	.	16f#\JJ	.	16f#/JJ	.	16ff#\JJ	.	.	.	.	.	16ff#\JJ	16ff#\JJ
8G\L	.	8g\L	.	8g/L	.	8gg\L	.	2r	.	2r	.	8gg\L	8gg\L
8A\	.	8a\	.	8a/	.	8aa\	.	.	.	.	.	8aa\	8aa\
8B\	.	8b\	.	8b/	.	8bb\	.	.	.	.	.	8bb\	8bb\
8c#\J	.	8cc#\J	.	8cc#/J	.	8ccc#\J	.	.	.	.	.	8ccc#\J	8ccc#\J
!LO:LB:g=original	!	!	!	!	!	!	!	!	!	!	!	!	!
=88	=88	=88	=88	=88	=88	=88	=88	=88	=88	=88	=88	=88	=88
4d\	.	4dd\	.	4dd\	.	4ddd\	.	1r;	.	4d\	.	4ddd\	4ddd\
4r	.	4r	.	4r	.	4r	.	.	.	4r	.	4r	4r
!LO:TX:a:t=Andante Verte Cito	!	!	!	!	!	!	!	!LO:TX:a:t=Andante Tacet	!	!LO:TX:a:t=Andante Tacet	!	!LO:TX:a:t=Andante Tacet	!LO:TX:a:t=Andante Tacet
2r;	.	2r;	.	2r	.	2r	.	.	.	2r;	.	2r;	2r;
=:|!;	=:|!	=:|!;	=:|!	=:|!;;	=:|!	=:|!;	=:|!	=:|!;	=:|!	=:|!;	=:|!	=:|!;	=:|!;
*-	*-	*-	*-	*-	*-	*-	*-	*-	*-	*-	*-	*-	*-
!!!system-decoration: [(g1)][(g2)][(g3)]{g4}
!!!RDF**kern: >=above
!!!RDF**kern: <=below
!!!RDF**dynam: p=p:
!!!RDF**dynam: f=f:
!!!ENC: Anna Matuszewska
!!!END: 2020-08-22
